LUTS/04_VSCO_LUTs_Turquoisescape.cube
TITLE "Generated by Resolve"
LUT_3D_SIZE 33
0 0 0
0.0213016 0.000747692 0.00231937
0.039765 0.00227359 0.00761425
0.0603799 0.00334173 0.0116732
0.0838483 0.00395209 0.0137942
0.108019 0.00433356 0.0156863
0.13315 0.00444038 0.0173495
0.159396 0.00424201 0.0187381
0.186831 0.00369268 0.0198672
0.215503 0.00280766 0.0207675
0.245289 0.0016022 0.0214694
0.275608 0.000259403 0.0221408
0.298802 0.000839246 0.0248417
0.327077 4.57771e-05 0.026276
0.357382 0 0.0272374
0.387808 0 0.0282444
0.418448 0 0.029221
0.449149 0 0.0302129
0.47985 0 0.0312963
0.510384 0 0.0324712
0.540581 0 0.033814
0.570245 0 0.0353552
0.599176 0 0.0371099
0.627344 0 0.0390784
0.654704 0 0.0412909
0.681254 0 0.0437018
0.707057 0 0.0463569
0.732265 0 0.0491798
0.757031 0 0.0521401
0.781537 0 0.0552377
0.805951 0 0.0584268
0.830457 0 0.061677
0.854932 0 0.0650187
0 0.0252079 0.00628672
0.0270695 0.0261082 0.00386053
0.050721 0.0268406 0.00514229
0.0719158 0.0275883 0.00840772
0.0944076 0.0281682 0.0111238
0.118029 0.0285344 0.0133516
0.142779 0.0286259 0.0152285
0.168765 0.0284123 0.0167849
0.196002 0.0278782 0.0180667
0.224521 0.0270237 0.0190738
0.254185 0.0258793 0.0198825
0.284733 0.0244907 0.0205692
0.308232 0.0250858 0.0229191
0.33341 0.0252537 0.0249943
0.363134 0.0241855 0.026154
0.393423 0.0230106 0.0272831
0.423957 0.0218204 0.0283818
0.454582 0.0206607 0.0295262
0.485237 0.0195468 0.0307469
0.515755 0.0185245 0.0320897
0.545953 0.0176547 0.0336004
0.575647 0.0170138 0.0353094
0.604654 0.0166171 0.0372625
0.632929 0.0165103 0.0394598
0.660426 0.0167239 0.041886
0.687144 0.0172427 0.0445563
0.713146 0.0180514 0.0474403
0.738567 0.0191196 0.0505074
0.763561 0.0204013 0.053727
0.788312 0.0218357 0.057084
0.81297 0.0234073 0.0605173
0.837705 0.0250401 0.0640116
0.862425 0.0267643 0.0676127
0 0.0489052 0.0146487
0.0270085 0.0510262 0.0102541
0.0546883 0.0522164 0.00791943
0.0798047 0.052842 0.00822461
0.103304 0.0532235 0.0100252
0.127108 0.0534524 0.0120394
0.151858 0.0534524 0.013901
0.177813 0.053193 0.0155032
0.205005 0.0526589 0.016846
0.233463 0.0518196 0.0179446
0.263081 0.0507057 0.0188449
0.293599 0.0494087 0.0196231
0.318151 0.0498207 0.0216373
0.34107 0.050721 0.0240787
0.369009 0.0502937 0.0256809
0.399191 0.0493019 0.0269322
0.429664 0.0482948 0.0281987
0.460273 0.0473182 0.0294957
0.490929 0.0464179 0.0308995
0.521477 0.0456092 0.0324407
0.551736 0.0449836 0.0341497
0.581506 0.0445716 0.0360876
0.610636 0.0444343 0.0382696
0.639063 0.0445869 0.0406958
0.666728 0.0450294 0.0433661
0.693629 0.0457771 0.0462654
0.719829 0.0468299 0.0493935
0.74548 0.048127 0.0527199
0.770703 0.0496376 0.0561837
0.795682 0.0513008 0.0597696
0.820584 0.0531014 0.063447
0.845563 0.0549477 0.0672007
0.870542 0.0569162 0.071046
6.10361e-05 0.0719921 0.0184634
0.0256199 0.0747692 0.0168002
0.0549325 0.0767834 0.0137179
0.0831464 0.0780804 0.0117647
0.109392 0.0787213 0.0116274
0.134569 0.0789502 0.0126345
0.159991 0.0789044 0.0139925
0.186313 0.0785992 0.0153506
0.213718 0.0780499 0.0165866
0.242313 0.0772259 0.0176699
0.272007 0.0761883 0.0186007
0.302571 0.0749676 0.0194553
0.327825 0.0753185 0.0212711
0.349477 0.0767529 0.0238499
0.375219 0.0771038 0.0258946
0.405219 0.0763561 0.0273289
0.435691 0.0755627 0.0287633
0.466331 0.0748302 0.0302434
0.497047 0.0741588 0.0318608
0.527672 0.0736095 0.0336156
0.558022 0.0732128 0.0355535
0.587915 0.0730602 0.037705
0.617166 0.073167 0.040116
0.645731 0.0735485 0.042771
0.673564 0.0742351 0.0456703
0.700664 0.075227 0.0487984
0.727077 0.0764935 0.0521706
0.752941 0.0780194 0.0557259
0.778393 0.0797589 0.0594339
0.803616 0.081651 0.0632639
0.828763 0.0836652 0.0671855
0.854002 0.0857404 0.0711681
0.879225 0.0879225 0.0752575
0.00363165 0.0959029 0.0196078
0.0271 0.098909 0.0197604
0.0557259 0.10103 0.0184482
0.0847028 0.102876 0.016556
0.11284 0.104097 0.0153506
0.140002 0.104692 0.0151522
0.166766 0.104814 0.0156558
0.193912 0.104601 0.016495
0.221836 0.104112 0.0174258
0.250782 0.103365 0.0183261
0.28072 0.102419 0.0191958
0.311467 0.10132 0.0200504
0.336553 0.1019 0.0218509
0.357809 0.10367 0.0243992
0.382162 0.104662 0.026688
0.411368 0.104372 0.028397
0.441901 0.103822 0.0300145
0.472602 0.103319 0.0316777
0.50341 0.102892 0.0334783
0.534127 0.102586 0.0354314
0.564569 0.102449 0.0375677
0.594583 0.102525 0.0399329
0.623972 0.102861 0.0425422
0.652689 0.103487 0.0454108
0.680705 0.104417 0.0485389
0.708003 0.105623 0.0518959
0.734615 0.107118 0.0554971
0.760708 0.108873 0.0592813
0.786404 0.110826 0.0632181
0.811872 0.112932 0.067277
0.837263 0.115145 0.0714122
0.862715 0.117418 0.0756085
0.888136 0.119783 0.0798962
0.0068513 0.120317 0.0203098
0.0293126 0.123522 0.0215457
0.0556039 0.126177 0.0216526
0.0863203 0.127703 0.0207675
0.115251 0.129397 0.0196384
0.143801 0.13051 0.0188907
0.172061 0.131044 0.0186618
0.200397 0.131106 0.0188754
0.229175 0.130816 0.0193637
0.258701 0.130251 0.0199741
0.289067 0.129473 0.020676
0.320134 0.128542 0.0214542
0.343862 0.129809 0.0233463
0.365438 0.131762 0.0257572
0.389212 0.133181 0.0281224
0.417472 0.133425 0.0300603
0.448081 0.13312 0.0317845
0.478889 0.132845 0.0336156
0.509773 0.132662 0.0355688
0.540597 0.132601 0.0376898
0.57116 0.132692 0.0399939
0.601297 0.133013 0.0425574
0.630838 0.133593 0.0453651
0.659709 0.134447 0.0484321
0.687907 0.135592 0.0517586
0.715404 0.137041 0.0553292
0.742229 0.13875 0.059144
0.768536 0.140703 0.0631266
0.79443 0.142824 0.0672465
0.820096 0.145098 0.0714733
0.84567 0.147478 0.0757763
0.871305 0.149874 0.0801099
0.89688 0.152361 0.084535
0.00955215 0.145541 0.0203555
0.0315099 0.148898 0.0224308
0.0564126 0.151904 0.0236362
0.0851759 0.15404 0.0239261
0.116777 0.155306 0.0234836
0.146868 0.156634 0.0228428
0.176257 0.157641 0.0223697
0.205798 0.158129 0.0221714
0.235615 0.15819 0.0222477
0.265949 0.157916 0.0225376
0.29691 0.157382 0.0229953
0.32694 0.157122 0.0237583
0.349447 0.15906 0.0256352
0.371862 0.161089 0.0278019
0.395758 0.162783 0.0300755
0.423316 0.163516 0.0321202
0.454017 0.163455 0.0339361
0.484932 0.163424 0.0358587
0.515938 0.163485 0.0379339
0.546868 0.163653 0.0401923
0.577554 0.164004 0.042649
0.607813 0.164553 0.0453651
0.637507 0.165377 0.0483406
0.666529 0.166445 0.0515755
0.694896 0.167803 0.0550698
0.722545 0.169421 0.058793
0.749538 0.171298 0.0627451
0.775998 0.173404 0.066865
0.80206 0.175662 0.071107
0.827878 0.178058 0.0754559
0.85359 0.180529 0.0798657
0.879362 0.183032 0.0842908
0.905043 0.185595 0.0887922
0.0117189 0.171832 0.0197452
0.0334478 0.175341 0.0225528
0.0575265 0.178607 0.0246738
0.0849928 0.181186 0.0260014
0.11516 0.183062 0.026566
0.147356 0.184207 0.0265202
0.17995 0.184894 0.0261692
0.210422 0.185794 0.0258946
0.24123 0.186252 0.025742
0.27245 0.186328 0.0257572
0.303563 0.186267 0.0260014
0.329168 0.187716 0.027039
0.353277 0.189593 0.0285344
0.376898 0.191638 0.030396
0.401404 0.193484 0.0324865
0.42884 0.194568 0.0345159
0.459571 0.194797 0.0363622
0.490608 0.195026 0.0383307
0.521737 0.195331 0.0404822
0.552789 0.195758 0.0428321
0.583581 0.196338 0.0453956
0.613962 0.197101 0.0482032
0.643748 0.198123 0.0512703
0.672892 0.199374 0.054612
0.70135 0.200885 0.0581826
0.729122 0.20264 0.0619974
0.756237 0.204654 0.0660258
0.782818 0.206851 0.070222
0.809003 0.209216 0.0745403
0.834928 0.211688 0.0789349
0.860746 0.214221 0.0833906
0.886595 0.21677 0.0878767
0.912367 0.219364 0.0924086
0.0135348 0.199374 0.018616
0.0351873 0.203067 0.0221103
0.0587472 0.206577 0.0250401
0.0852522 0.209522 0.0272984
0.114168 0.211902 0.028809
0.145129 0.213642 0.029633
0.177447 0.214817 0.0299077
0.210254 0.215564 0.0298619
0.242512 0.216175 0.0297398
0.273472 0.216907 0.0297551
0.302632 0.21796 0.0300755
0.329885 0.219425 0.0307927
0.355627 0.221271 0.0319524
0.380652 0.223316 0.0335088
0.406134 0.225238 0.0353704
0.433936 0.226551 0.0372931
0.464759 0.22707 0.0390936
0.495918 0.227558 0.041062
0.527153 0.228107 0.0432136
0.558267 0.228733 0.0455634
0.589136 0.229496 0.048127
0.619577 0.230457 0.0509651
0.649439 0.231617 0.0540627
0.678645 0.233021 0.0574197
0.707179 0.234653 0.0610208
0.735012 0.236515 0.0648508
0.762203 0.238605 0.0688945
0.788861 0.240879 0.073106
0.815122 0.24329 0.0774243
0.841108 0.245808 0.0818341
0.866987 0.248371 0.0862745
0.892897 0.250919 0.0907454
0.918685 0.253529 0.0952468
0.0151369 0.228336 0.0171511
0.03682 0.232197 0.0212711
0.0600443 0.235935 0.0249027
0.0858167 0.239155 0.0279545
0.11371 0.241917 0.0303349
0.143511 0.244175 0.0320134
0.174823 0.245884 0.0330358
0.207004 0.247181 0.0335851
0.239216 0.248264 0.0338293
0.270695 0.249332 0.0340124
0.300923 0.250568 0.0343023
0.32958 0.252125 0.0348516
0.356878 0.253971 0.0357671
0.383368 0.256001 0.0370489
0.410025 0.257954 0.0386511
0.438529 0.259373 0.0403754
0.469505 0.260121 0.0420691
0.500755 0.260822 0.0439307
0.532036 0.26157 0.0459907
0.56321 0.262379 0.0482643
0.59411 0.26331 0.050782
0.624582 0.264408 0.0535592
0.654444 0.265705 0.0565957
0.683665 0.267216 0.0599069
0.71223 0.26894 0.0634623
0.740108 0.270878 0.0672618
0.767315 0.273014 0.0712596
0.794003 0.275319 0.0754101
0.820294 0.277745 0.0796826
0.846311 0.280262 0.0840314
0.872206 0.282811 0.0884108
0.898116 0.285344 0.0928054
0.923888 0.287892 0.0972305
0.0167544 0.258671 0.0155795
0.038529 0.262684 0.020264
0.0615244 0.266606 0.0245212
0.0867933 0.270069 0.028275
0.113863 0.273152 0.0314183
0.142687 0.275792 0.033875
0.173037 0.277958 0.0356756
0.204517 0.279728 0.0368658
0.236423 0.281224 0.0376287
0.268132 0.282597 0.0381323
0.299077 0.284031 0.0385595
0.328847 0.285649 0.0390936
0.357488 0.287495 0.0398413
0.385382 0.289448 0.0408942
0.413275 0.291356 0.0422217
0.442679 0.29279 0.0437018
0.473854 0.293721 0.0452277
0.50515 0.294606 0.0469368
0.536461 0.295521 0.0488441
0.567636 0.296483 0.0509957
0.598535 0.297551 0.0533761
0.628977 0.298772 0.0560159
0.658824 0.30016 0.0589456
0.688029 0.301732 0.0621347
0.716564 0.303517 0.0655833
0.744427 0.305501 0.069276
0.771618 0.307652 0.0731518
0.798291 0.309957 0.0772106
0.824567 0.312367 0.0813611
0.850553 0.314839 0.0855879
0.876417 0.317327 0.0898451
0.902281 0.319799 0.0941024
0.928008 0.322286 0.0983902
0.0187076 0.290257 0.0142824
0.0406043 0.294408 0.0194858
0.0634928 0.298497 0.0242924
0.0883955 0.302159 0.0286412
0.114855 0.305501 0.0324559
0.142885 0.308476 0.0356298
0.172412 0.310994 0.038117
0.203159 0.313115 0.0399481
0.234638 0.314931 0.0412451
0.266316 0.316548 0.0421302
0.297673 0.31812 0.0427863
0.328267 0.319768 0.0433814
0.358022 0.321553 0.0440833
0.387167 0.3234 0.0449683
0.416281 0.325185 0.0460822
0.446647 0.326558 0.047303
0.477913 0.327642 0.0486458
0.509255 0.328679 0.0501564
0.540566 0.329732 0.0518807
0.57171 0.330816 0.0538338
0.602548 0.331975 0.0560159
0.632929 0.333272 0.0584878
0.662715 0.334722 0.0612345
0.691844 0.336355 0.0642557
0.720317 0.338155 0.0675212
0.748104 0.340124 0.0710307
0.775235 0.342275 0.0747539
0.801846 0.344533 0.0786297
0.828061 0.346883 0.0826123
0.853986 0.349294 0.0866712
0.879835 0.351766 0.0908064
0.905715 0.354238 0.0949874
0.931517 0.356786 0.0992447
0.0213321 0.322972 0.0136263
0.0433509 0.327276 0.0192721
0.0662089 0.331502 0.024567
0.0908675 0.335332 0.0294347
0.116869 0.338857 0.0337835
0.144259 0.342031 0.0375219
0.173037 0.344793 0.040589
0.203113 0.347158 0.0429847
0.234089 0.349187 0.0447547
0.265583 0.350958 0.0460365
0.297139 0.352605 0.0469673
0.328313 0.354238 0.047715
0.358968 0.355917 0.0484321
0.389197 0.357626 0.0492256
0.419455 0.359228 0.0501717
0.450523 0.360525 0.0512093
0.481849 0.361715 0.0523384
0.513191 0.36286 0.0536355
0.544457 0.363989 0.0551461
0.57554 0.365148 0.0568551
0.606287 0.366369 0.0588083
0.636576 0.367712 0.0610361
0.666239 0.369192 0.0635538
0.695262 0.370825 0.0663462
0.723613 0.37261 0.069398
0.751293 0.374563 0.0726787
0.778332 0.376669 0.0761883
0.804913 0.378927 0.0799115
0.831128 0.381323 0.0837873
0.85713 0.38381 0.0878004
0.88304 0.386343 0.0918898
0.90898 0.388876 0.096025
0.934844 0.39147 0.100237
0.0248875 0.35668 0.013901
0.0470283 0.361074 0.0199283
0.0698558 0.365377 0.0255894
0.094316 0.369284 0.0308537
0.119951 0.3729 0.0356146
0.146822 0.376196 0.0397955
0.17499 0.37911 0.0433051
0.204471 0.381613 0.0461585
0.234974 0.383749 0.0483558
0.266224 0.385595 0.0499886
0.297841 0.387259 0.051194
0.329427 0.388815 0.0521096
0.360769 0.390356 0.0528878
0.391928 0.391852 0.0536507
0.423148 0.39324 0.0544747
0.454429 0.394537 0.055375
0.485771 0.395773 0.0563363
0.517082 0.396948 0.0574044
0.548287 0.398108 0.0586709
0.579263 0.399298 0.0601205
0.609888 0.400534 0.0618143
0.640024 0.401877 0.0637675
0.669551 0.403342 0.0660105
0.698436 0.404974 0.0685588
0.726726 0.406806 0.0714275
0.754391 0.408835 0.0745708
0.781445 0.411032 0.0779889
0.808057 0.413382 0.0816205
0.834318 0.415839 0.08542
0.860349 0.418387 0.0893416
0.88629 0.420966 0.0933547
0.912276 0.423545 0.0973983
0.938155 0.426154 0.101549
0.0294957 0.391043 0.0152743
0.0516823 0.395483 0.021561
0.074464 0.399817 0.0274968
0.0987869 0.403738 0.0330358
0.124147 0.407385 0.0381018
0.150622 0.410712 0.0426032
0.178317 0.413672 0.0464637
0.207309 0.41622 0.0496529
0.2374 0.418402 0.0521859
0.268406 0.420249 0.0541238
0.300023 0.421836 0.0555581
0.331884 0.423285 0.0566415
0.36379 0.424613 0.057496
0.395666 0.425879 0.0582437
0.427161 0.427161 0.0590219
0.458457 0.428428 0.0598154
0.489784 0.429633 0.0606088
0.52105 0.430777 0.0614786
0.552148 0.431922 0.0624857
0.583001 0.433097 0.0636759
0.613535 0.434348 0.0651255
0.643595 0.435752 0.0668956
0.673075 0.437324 0.068986
0.701946 0.439063 0.071397
0.730205 0.440986 0.0741283
0.757855 0.443091 0.0771496
0.784909 0.445365 0.0804456
0.811505 0.447791 0.0839551
0.837766 0.450294 0.0876326
0.863813 0.452873 0.0914321
0.889754 0.455482 0.0953231
0.91574 0.458076 0.0992752
0.941619 0.4607 0.103288
0.0346532 0.426032 0.0171664
0.0568399 0.430457 0.0236362
0.0795605 0.43476 0.0297856
0.103761 0.438636 0.0355383
0.128954 0.442237 0.0408179
0.155169 0.445518 0.0455634
0.182559 0.448417 0.0496834
0.211185 0.450935 0.0531319
0.24097 0.453056 0.0559243
0.271794 0.45481 0.0580911
0.30341 0.456275 0.0597238
0.335454 0.457542 0.0609598
0.367605 0.458686 0.0618906
0.399558 0.459815 0.0626841
0.431067 0.46099 0.0634165
0.462348 0.462165 0.0641184
0.493645 0.463294 0.0648051
0.524895 0.464424 0.0655528
0.555993 0.465614 0.0664378
0.586862 0.466865 0.0675212
0.617365 0.468223 0.0688487
0.647395 0.469718 0.0704814
0.676829 0.471366 0.0724193
0.705638 0.473198 0.0746777
0.733852 0.475196 0.0772412
0.76144 0.477363 0.0801099
0.788449 0.479683 0.0832532
0.815015 0.482139 0.0866102
0.841245 0.484672 0.090135
0.867247 0.487266 0.0937972
0.893172 0.489876 0.0975357
0.919127 0.49247 0.101335
0.944976 0.495079 0.105211
0.0400092 0.461479 0.0192416
0.06215 0.465858 0.0258488
0.0847791 0.4701 0.0321202
0.108843 0.473884 0.0380102
0.133852 0.477394 0.0434577
0.159869 0.480552 0.0483711
0.187015 0.483345 0.0526589
0.215427 0.485725 0.0563058
0.244999 0.487724 0.0592966
0.275669 0.489326 0.0616465
0.307164 0.490639 0.0634318
0.339117 0.491737 0.0647898
0.371221 0.492714 0.0658122
0.403174 0.493721 0.0666667
0.434745 0.49482 0.0674907
0.466117 0.495979 0.0682536
0.497505 0.497124 0.068986
0.528817 0.498299 0.0697337
0.559945 0.499519 0.070573
0.590799 0.500832 0.0715801
0.621271 0.502235 0.0727855
0.65124 0.503777 0.0742657
0.680598 0.505486 0.076051
0.709331 0.507362 0.0781415
0.737469 0.509392 0.0805371
0.764965 0.511604 0.083238
0.791897 0.513954 0.086183
0.818387 0.516411 0.0893568
0.844541 0.518959 0.0927138
0.870481 0.521538 0.0961929
0.896345 0.524132 0.0997635
0.92224 0.526696 0.10338
0.948013 0.529274 0.107088
0.0455634 0.497139 0.0215457
0.0676432 0.501411 0.0281987
0.0901198 0.505547 0.0345312
0.114015 0.509224 0.0404974
0.138811 0.512596 0.0460365
0.164584 0.515618 0.0510414
0.191501 0.518257 0.0554513
0.219654 0.52047 0.059205
0.248997 0.522286 0.0623178
0.279454 0.523735 0.0648051
0.310826 0.52491 0.0667887
0.342779 0.525933 0.0683452
0.374929 0.526879 0.0695964
0.406989 0.52784 0.0706493
0.438651 0.528923 0.0716259
0.47013 0.530037 0.0725109
0.501579 0.531182 0.0733043
0.532921 0.532341 0.0740673
0.564065 0.533562 0.074876
0.594903 0.534859 0.0758221
0.625315 0.536278 0.0769207
0.655222 0.537835 0.0782788
0.684474 0.539559 0.0798962
0.7131 0.541451 0.0818189
0.741115 0.543496 0.0840314
0.768505 0.545708 0.0865187
0.795316 0.548058 0.0892805
0.821698 0.550515 0.092256
0.847745 0.553033 0.0954147
0.873594 0.555581 0.0986801
0.899351 0.558145 0.102052
0.925155 0.560662 0.105455
0.950835 0.56318 0.108949
0.0513313 0.532738 0.0240635
0.0732586 0.536889 0.0307164
0.0955825 0.540871 0.0370489
0.119265 0.544381 0.0430152
0.143816 0.547585 0.0485695
0.169329 0.550439 0.0536049
0.195987 0.552926 0.0580758
0.223957 0.555047 0.0619974
0.253178 0.556817 0.0653239
0.283574 0.558236 0.0680705
0.314931 0.55938 0.0702983
0.346883 0.560357 0.0720836
0.37908 0.561257 0.0735485
0.411185 0.562173 0.0747997
0.442908 0.56318 0.0759136
0.474434 0.564248 0.0769055
0.505913 0.565332 0.07776
0.53727 0.56643 0.0785534
0.568399 0.567605 0.0793622
0.599207 0.568872 0.0802472
0.629557 0.57026 0.0812695
0.659358 0.571786 0.0824903
0.688502 0.573495 0.0839704
0.717006 0.575357 0.0857099
0.744869 0.577401 0.0877241
0.772107 0.579583 0.0900282
0.798779 0.581888 0.0925612
0.82501 0.584314 0.0953231
0.850935 0.586786 0.0982528
0.876631 0.589288 0.101305
0.902266 0.591775 0.104433
0.927932 0.594217 0.107622
0.953475 0.596658 0.110887
0.0572824 0.568017 0.0268254
0.0790417 0.572 0.0334173
0.101137 0.575799 0.0396735
0.12462 0.579187 0.0456397
0.149035 0.5823 0.0512551
0.174426 0.585138 0.0564431
0.201007 0.587625 0.0611124
0.22887 0.589746 0.0652323
0.257984 0.591485 0.0687572
0.288304 0.592874 0.0717021
0.3196 0.593988 0.0741436
0.351507 0.594903 0.0761273
0.383688 0.595728 0.0777752
0.415808 0.596551 0.0791791
0.447547 0.597467 0.0804303
0.479088 0.598444 0.0815137
0.510582 0.599435 0.0824292
0.541924 0.600473 0.083238
0.573022 0.601556 0.0840467
0.603769 0.602747 0.0848859
0.634043 0.604059 0.0858167
0.663737 0.605539 0.0869306
0.69276 0.607172 0.0882582
0.721096 0.608988 0.0898299
0.748791 0.610971 0.0916609
0.77586 0.613092 0.0937514
0.80235 0.615351 0.0960708
0.828412 0.6177 0.0985885
0.854154 0.620096 0.101274
0.879683 0.622507 0.104082
0.90515 0.624918 0.106966
0.930648 0.627253 0.109895
0.956039 0.629587 0.112902
0.0635233 0.602823 0.0299535
0.0852064 0.606744 0.0365606
0.107271 0.610559 0.0429236
0.130694 0.613947 0.0489967
0.155016 0.617075 0.0547189
0.180316 0.619898 0.060029
0.20676 0.62237 0.0648203
0.234501 0.62446 0.0690776
0.263493 0.626169 0.0727398
0.293706 0.627512 0.0758526
0.324895 0.62855 0.0784314
0.356725 0.629389 0.0805676
0.388861 0.630106 0.0823377
0.420951 0.630838 0.0838636
0.452674 0.631662 0.0852216
0.484184 0.632517 0.0863661
0.515648 0.633387 0.0873426
0.546944 0.634302 0.0881666
0.577981 0.635279 0.0889448
0.608652 0.636362 0.0897383
0.638834 0.637568 0.0905928
0.668406 0.638941 0.0915999
0.697261 0.640497 0.0928054
0.725429 0.642222 0.0942092
0.752941 0.644099 0.0958419
0.779812 0.646143 0.0977035
0.806088 0.64831 0.099794
0.831937 0.650553 0.102083
0.857481 0.652857 0.104509
0.882811 0.655161 0.107057
0.90808 0.65745 0.109667
0.933379 0.659663 0.112322
0.958556 0.66186 0.115053
0.0706951 0.637522 0.0341192
0.0923629 0.641443 0.0407721
0.114351 0.645258 0.0471656
0.137697 0.64863 0.0532998
0.161898 0.651743 0.0590829
0.18706 0.654536 0.0644541
0.213367 0.656977 0.0693217
0.24094 0.659007 0.07364
0.26978 0.66067 0.077409
0.299825 0.661936 0.0805982
0.330892 0.662898 0.0832685
0.362615 0.663645 0.0854963
0.394659 0.664256 0.0873579
0.426673 0.664866 0.0889601
0.458335 0.665553 0.0903792
0.489784 0.66627 0.0915694
0.521187 0.667018 0.0925612
0.552407 0.667796 0.0934005
0.583368 0.668635 0.0941482
0.613931 0.669581 0.0948806
0.643977 0.670665 0.0956588
0.673411 0.671901 0.0965438
0.702098 0.67332 0.0975967
0.730083 0.674922 0.0988327
0.757382 0.676692 0.100282
0.784024 0.678614 0.10193
0.810071 0.680644 0.103792
0.835676 0.68278 0.105821
0.860975 0.684947 0.107973
0.886076 0.687114 0.110246
0.911086 0.68925 0.112566
0.936172 0.691325 0.114946
0.96112 0.69337 0.117372
0.0789502 0.672038 0.0394598
0.100542 0.675944 0.0461128
0.122438 0.679728 0.0525063
0.145647 0.68307 0.0586252
0.169711 0.686137 0.0644236
0.194705 0.688884 0.0697948
0.220829 0.691264 0.0746777
0.248219 0.693233 0.0790112
0.27686 0.69482 0.0828107
0.306737 0.69601 0.0860304
0.337636 0.696864 0.0887465
0.369207 0.697505 0.0910048
0.401114 0.697993 0.0929122
0.433021 0.698466 0.0945296
0.464576 0.699016 0.0959793
0.495933 0.699596 0.0971847
0.527245 0.700175 0.0981613
0.558343 0.700786 0.09897
0.589197 0.701473 0.0996719
0.619623 0.702266 0.100343
0.649546 0.703182 0.101015
0.678798 0.704265 0.101778
0.707301 0.705531 0.102693
0.735073 0.706981 0.103761
0.762142 0.708598 0.104997
0.78854 0.710369 0.106432
0.814313 0.712245 0.108034
0.839658 0.714229 0.109804
0.864698 0.716243 0.111696
0.889525 0.718257 0.11368
0.914305 0.720241 0.11574
0.939147 0.722164 0.117815
0.963882 0.724071 0.119982
0.0881819 0.706264 0.0458839
0.109651 0.710124 0.0524758
0.131411 0.713848 0.0588235
0.154482 0.717144 0.0648966
0.178363 0.720134 0.070634
0.203159 0.72282 0.0759594
0.229084 0.725124 0.0808118
0.256245 0.727016 0.0851148
0.284688 0.728511 0.0888838
0.314336 0.729595 0.0920882
0.345037 0.730343 0.094789
0.376425 0.730861 0.0970474
0.408164 0.731212 0.0989242
0.439918 0.731548 0.100542
0.471351 0.731929 0.101961
0.502571 0.732341 0.103151
0.533745 0.732754 0.104097
0.564721 0.733196 0.104845
0.595407 0.7337 0.10547
0.625696 0.73431 0.106035
0.655436 0.735042 0.106615
0.684504 0.735943 0.10724
0.712795 0.737026 0.107973
0.740322 0.738293 0.108858
0.767147 0.739742 0.109895
0.793271 0.741329 0.111101
0.818799 0.743053 0.11249
0.84387 0.744869 0.114015
0.868635 0.746731 0.115648
0.893217 0.748608 0.117372
0.917739 0.750454 0.119158
0.942336 0.752224 0.120974
0.966827 0.753979 0.122866
0.0982528 0.740063 0.053254
0.119585 0.743862 0.0597543
0.141176 0.747524 0.0660105
0.16405 0.750729 0.0719921
0.187732 0.753643 0.0776226
0.212314 0.756237 0.0828717
0.237995 0.75845 0.0876326
0.264927 0.760235 0.0918593
0.293111 0.761624 0.095552
0.32253 0.762585 0.0986801
0.352987 0.76321 0.10132
0.384161 0.763592 0.103517
0.415717 0.763806 0.105348
0.447288 0.763973 0.106905
0.478538 0.764187 0.108263
0.509606 0.764416 0.109392
0.540612 0.764645 0.110262
0.571405 0.764889 0.110918
0.601923 0.765194 0.111452
0.632029 0.765606 0.111894
0.661555 0.766125 0.112322
0.690425 0.766827 0.11281
0.718502 0.767727 0.11339
0.7458 0.768811 0.114092
0.772366 0.770077 0.114946
0.798245 0.771511 0.115953
0.823499 0.773068 0.117113
0.84831 0.774731 0.11841
0.872816 0.77644 0.119814
0.897124 0.778164 0.121279
0.921386 0.779858 0.12282
0.945739 0.781491 0.124376
0.969985 0.783093 0.125994
0.109056 0.773358 0.0614633
0.130205 0.777066 0.0678264
0.151598 0.780621 0.0739452
0.174258 0.783734 0.0797742
0.197696 0.786542 0.0852827
0.222034 0.789029 0.0903944
0.247456 0.791119 0.0950179
0.274113 0.792798 0.0991226
0.302037 0.794064 0.102693
0.331197 0.794888 0.105715
0.361395 0.795377 0.108248
0.392325 0.79559 0.110353
0.423651 0.795651 0.112078
0.455009 0.795636 0.113542
0.486046 0.795666 0.114794
0.516915 0.795697 0.115816
0.547723 0.795712 0.116564
0.578317 0.795758 0.117113
0.608637 0.795865 0.11751
0.638544 0.796063 0.117845
0.667887 0.796399 0.118135
0.696544 0.796902 0.118471
0.724392 0.79762 0.118898
0.751461 0.79852 0.119432
0.777798 0.799619 0.120104
0.803418 0.800885 0.120928
0.828412 0.802289 0.121889
0.852964 0.8038 0.122972
0.877195 0.805356 0.124147
0.901259 0.806928 0.125399
0.925261 0.808484 0.12668
0.949355 0.809964 0.127993
0.973358 0.811429 0.129366
0.120394 0.806058 0.0702983
0.141344 0.809644 0.0764935
0.162493 0.813092 0.0824292
0.184909 0.816083 0.0880903
0.208103 0.818753 0.0934157
0.232151 0.821118 0.0983597
0.257298 0.823072 0.102815
0.283665 0.824613 0.106752
0.311284 0.825727 0.11017
