LUTS/04_VSCO_LUTs_Turquoisescape.cube
TITLE "Generated by Resolve"
LUT_3D_SIZE 5
0 0 0
0.186831 0.00369268 0.0198672
0.418448 0 0.029221
0.654704 0 0.0412909
0.854932 0 0.0650187
0.0135348 0.199374 0.018616
0.242512 0.216175 0.0297398
0.464759 0.22707 0.0390936
0.707179 0.234653 0.0610208
0.918685 0.253529 0.0952468
0.0400092 0.461479 0.0192416
0.244999 0.487724 0.0592966
0.497505 0.497124 0.068986
0.737469 0.509392 0.0805371
0.948013 0.529274 0.107088
0.0982528 0.740063 0.053254
0.293111 0.761624 0.095552
0.540612 0.764645 0.110262
0.772366 0.770077 0.114946
0.969985 0.783093 0.125994
0.184009 0.987564 0.119768
0.360876 0.99884 0.148653
0.593393 0.99147 0.15433
0.81413 0.98764 0.152148
0.999084 0.995041 0.154513
0 0.0328527 0.210163
0.0911116 0.0231785 0.245365
0.371679 0.00280766 0.260838
0.630182 0 0.271412
0.837507 0.00198367 0.29482
0 0.201129 0.22211
0.227985 0.228016 0.228031
0.504646 0.220142 0.227665
0.706737 0.239704 0.285893
0.919112 0.259937 0.321813
0.0166476 0.475517 0.220691
0.224125 0.502007 0.268742
0.531441 0.498131 0.253712
0.745266 0.516701 0.284352
0.955566 0.536477 0.317601
0.0853285 0.758343 0.254505
0.280705 0.779263 0.30132
0.540536 0.774777 0.314382
0.776242 0.775387 0.312551
0.974273 0.78706 0.32311
0.174243 1 0.320638
0.349599 1 0.351034
0.589029 0.997711 0.356054
0.81445 0.990646 0.350256
1 0.997604 0.349401
0 0.0568551 0.427771
0 0.0517128 0.491615
0.277745 0.0188449 0.526024
0.572732 0.000259403 0.54583
0.796887 0.00881972 0.570993
0 0.230381 0.419303
0.019791 0.255375 0.487007
0.406165 0.236973 0.519936
0.673686 0.24744 0.574701
0.89897 0.267231 0.604547
0 0.494621 0.461738
0.147356 0.529503 0.527565
0.508873 0.508904 0.508919
0.800412 0.510842 0.511742
0.952728 0.543343 0.586175
0.0561837 0.779004 0.495796
0.244083 0.803738 0.551141
0.522148 0.791531 0.571496
0.805295 0.770626 0.532906
0.975097 0.788052 0.565225
0.151919 1 0.560082
0.323354 1 0.594491
0.572808 1 0.603189
0.809918 0.991119 0.593256
0.998367 0.997131 0.585672
0 0.0795148 0.591379
0 0.0763867 0.664759
0.190066 0.0419928 0.727062
0.504417 0.0171664 0.773724
0.745525 0.023209 0.813397
0 0.261463 0.578119
0 0.288258 0.66508
0.274571 0.278202 0.761547
0.613443 0.268757 0.824537
0.860502 0.28307 0.863981
0 0.525368 0.628931
0.0749523 0.568032 0.690944
0.351461 0.576867 0.749081
0.732738 0.544884 0.79733
0.929381 0.560693 0.853788
0.0265965 0.804227 0.690669
0.199664 0.835096 0.753872
0.469322 0.831449 0.800305
0.778592 0.778607 0.778607
1 0.781781 0.779019
0.127855 1 0.75581
0.290501 1 0.796872
0.544717 1 0.819455
0.800839 0.995407 0.82652
1 0.991348 0.795926
0 0.103334 0.682322
0 0.101854 0.761517
0.127947 0.0690013 0.841062
0.446571 0.042298 0.914229
0.696864 0.0465553 0.977279
0 0.293278 0.670298
0 0.321294 0.764965
0.22475 0.313237 0.874449
0.560861 0.300679 0.971084
0.817685 0.309911 1
0 0.563684 0.709575
0.0265812 0.607843 0.774044
0.303105 0.614267 0.855955
0.632563 0.595972 0.96585
0.888045 0.593027 1
0.00282292 0.83505 0.797345
0.164981 0.868833 0.857908
0.424308 0.868437 0.896315
0.698222 0.853681 0.932342
0.9682 0.816388 0.989258
0.107973 1 0.872404
0.260777 1 0.915434
0.512551 1 0.944259
0.776013 1 0.973297
1 1 1
