LUTS/04_VSCO_LUTs_Turquoisescape.cube
TITLE "Generated by Resolve"
LUT_3D_SIZE 9
0 0 0
0.0838483 0.00395209 0.0137942
0.186831 0.00369268 0.0198672
0.298802 0.000839246 0.0248417
0.418448 0 0.029221
0.540581 0 0.033814
0.654704 0 0.0412909
0.757031 0 0.0521401
0.854932 0 0.0650187
0.00363165 0.0959029 0.0196078
0.11284 0.104097 0.0153506
0.221836 0.104112 0.0174258
0.336553 0.1019 0.0218509
0.441901 0.103822 0.0300145
0.564569 0.102449 0.0375677
0.680705 0.104417 0.0485389
0.786404 0.110826 0.0632181
0.888136 0.119783 0.0798962
0.0135348 0.199374 0.018616
0.114168 0.211902 0.028809
0.242512 0.216175 0.0297398
0.355627 0.221271 0.0319524
0.464759 0.22707 0.0390936
0.589136 0.229496 0.048127
0.707179 0.234653 0.0610208
0.815122 0.24329 0.0774243
0.918685 0.253529 0.0952468
0.0213321 0.322972 0.0136263
0.116869 0.338857 0.0337835
0.234089 0.349187 0.0447547
0.358968 0.355917 0.0484321
0.481849 0.361715 0.0523384
0.606287 0.366369 0.0588083
0.723613 0.37261 0.069398
0.831128 0.381323 0.0837873
0.934844 0.39147 0.100237
0.0400092 0.461479 0.0192416
0.133852 0.477394 0.0434577
0.244999 0.487724 0.0592966
0.371221 0.492714 0.0658122
0.497505 0.497124 0.068986
0.621271 0.502235 0.0727855
0.737469 0.509392 0.0805371
0.844541 0.518959 0.0927138
0.948013 0.529274 0.107088
0.0635233 0.602823 0.0299535
0.155016 0.617075 0.0547189
0.263493 0.626169 0.0727398
0.388861 0.630106 0.0823377
0.515648 0.633387 0.0873426
0.638834 0.637568 0.0905928
0.752941 0.644099 0.0958419
0.857481 0.652857 0.104509
0.958556 0.66186 0.115053
0.0982528 0.740063 0.053254
0.187732 0.753643 0.0776226
0.293111 0.761624 0.095552
0.415717 0.763806 0.105348
0.540612 0.764645 0.110262
0.661555 0.766125 0.112322
0.772366 0.770077 0.114946
0.872816 0.77644 0.119814
0.969985 0.783093 0.125994
0.14345 0.869535 0.0885634
0.228992 0.880964 0.109895
0.329671 0.886564 0.124941
0.447852 0.886076 0.132311
0.569253 0.88394 0.135164
0.687114 0.882445 0.135241
0.794476 0.88365 0.135485
0.890913 0.887694 0.137392
0.984268 0.892378 0.140246
0.184009 0.987564 0.119768
0.264866 0.995911 0.137026
0.360876 0.99884 0.148653
0.475013 0.995911 0.153384
0.593393 0.99147 0.15433
0.708919 0.987961 0.153017
0.81413 0.98764 0.152148
0.908095 0.990784 0.152941
0.999084 0.995041 0.154513
0 0.0180972 0.112322
0.0236362 0.0167239 0.127932
0.151873 0.0106813 0.127626
0.285084 0.00271611 0.126619
0.402319 0 0.138201
0.529259 0 0.142351
0.646403 0 0.149645
0.750256 0 0.16051
0.848981 0 0.173556
0 0.0957351 0.120134
0.108156 0.108171 0.108171
0.20766 0.105455 0.113161
0.333516 0.101534 0.11603
0.43653 0.104356 0.134859
0.559869 0.1037 0.144457
0.678126 0.105989 0.156039
0.784787 0.113039 0.171237
0.88687 0.122637 0.188312
0 0.198047 0.116167
0.090135 0.213153 0.130327
0.251087 0.218677 0.111864
0.380728 0.218662 0.112016
0.482612 0.225299 0.131502
0.590448 0.232074 0.151156
0.709346 0.237369 0.165698
0.817456 0.246296 0.183169
0.92076 0.25684 0.201648
0.00936904 0.326009 0.108232
0.103914 0.343008 0.131563
0.234012 0.352743 0.139406
0.385138 0.354421 0.13312
0.50103 0.361807 0.141619
0.610086 0.370077 0.156573
0.727596 0.376013 0.169177
0.835203 0.384802 0.185306
0.938704 0.395148 0.203082
0.0318608 0.467964 0.113527
0.125246 0.484321 0.139971
0.240894 0.493721 0.156741
0.376638 0.496315 0.160739
0.503883 0.500557 0.16321
0.625284 0.506264 0.168063
0.741802 0.513344 0.176959
0.849104 0.52282 0.190616
0.952483 0.533104 0.206332
0.0572824 0.610803 0.123812
0.148455 0.625422 0.150393
0.258976 0.633906 0.169924
0.38822 0.636347 0.179767
0.517983 0.638148 0.183703
0.642145 0.641596 0.185809
0.756466 0.647807 0.190646
0.861189 0.656321 0.199741
0.96228 0.665095 0.211078
0.0940566 0.748882 0.147906
0.183032 0.762539 0.173556
0.289464 0.769802 0.192493
0.414527 0.770474 0.202579
0.541756 0.769589 0.20679
0.663737 0.769833 0.207614
0.774701 0.773114 0.209171
0.875181 0.779095 0.213535
0.972457 0.785458 0.219821
0.140429 0.877791 0.183749
0.225193 0.888991 0.205829
0.326253 0.893767 0.221408
0.446036 0.891905 0.228901
0.569284 0.888228 0.231235
0.688182 0.885527 0.230335
0.795773 0.886 0.22948
0.892195 0.889677 0.230564
0.985672 0.894133 0.233066
0.18088 0.994202 0.21445
0.260884 1 0.232181
0.357031 1 0.24416
0.472343 1 0.248966
0.592386 0.994675 0.249653
0.709102 0.990265 0.247791
0.814817 0.989456 0.246174
0.908873 0.992432 0.24625
1 0.996658 0.247349
0 0.0328527 0.210163
0 0.0327459 0.236179
0.0911116 0.0231785 0.245365
0.239261 0.0109407 0.248051
0.371679 0.00280766 0.260838
0.507485 0 0.26453
0.630182 0 0.271412
0.737011 0 0.281971
0.837507 0.00198367 0.29482
0 0.110063 0.208774
0 0.117311 0.232303
0.129046 0.1122 0.239353
0.29575 0.104906 0.235477
0.425498 0.103716 0.24976
0.545525 0.105303 0.267338
0.668635 0.107744 0.278431
0.7776 0.115358 0.293324
0.880796 0.125566 0.310201
0 0.201129 0.22211
0.0303502 0.214664 0.246723
0.227985 0.228016 0.228031
0.366506 0.22063 0.220645
0.504646 0.220142 0.227665
0.587884 0.233585 0.269383
0.706737 0.239704 0.285893
0.815717 0.249042 0.30341
0.919112 0.259937 0.321813
0 0.33048 0.216754
0.0751202 0.348226 0.244617
0.202106 0.359792 0.259403
0.394736 0.356756 0.229374
0.543816 0.35555 0.222278
0.62974 0.368688 0.257115
0.729244 0.378836 0.282811
0.836942 0.387854 0.300496
0.940139 0.398489 0.319219
0.0166476 0.475517 0.220691
0.107073 0.492805 0.249439
0.224125 0.502007 0.268742
0.376532 0.500694 0.266651
0.531441 0.498131 0.253712
0.644633 0.50576 0.264225
0.745266 0.516701 0.284352
0.852567 0.526177 0.300237
0.955566 0.536477 0.317601
0.0455024 0.619669 0.229953
0.135286 0.635172 0.258228
0.247471 0.643412 0.279454
0.383688 0.643473 0.288746
0.523598 0.64155 0.287861
0.64773 0.644144 0.288609
0.759365 0.650736 0.294682
0.86424 0.659113 0.304875
0.965179 0.667704 0.317586
0.0853285 0.758343 0.254505
0.173312 0.772457 0.281315
0.280705 0.779263 0.30132
0.409216 0.77818 0.311604
0.540536 0.774777 0.314382
0.664744 0.773068 0.312825
0.776242 0.775387 0.312551
0.876875 0.780972 0.31635
0.974273 0.78706 0.32311
0.133501 0.886381 0.290654
0.217258 0.897551 0.31339
0.318746 0.90164 0.329503
0.440726 0.898283 0.337011
0.566918 0.892622 0.33846
0.687816 0.888228 0.335836
0.796139 0.887694 0.33312
0.892714 0.890929 0.332937
0.986404 0.895155 0.334997
0.174243 1 0.320638
0.253285 1 0.338766
0.349599 1 0.351034
0.46656 1 0.355856
0.589029 0.997711 0.356054
0.707713 0.992126 0.35317
0.81445 0.990646 0.350256
0.908827 0.993408 0.349111
1 0.997604 0.349401
0 0.0451057 0.32108
0 0.0462196 0.348791
0.0266423 0.037171 0.369009
0.17261 0.0234226 0.388266
0.327642 0.00952163 0.396262
0.474464 0 0.401495
0.604929 0 0.408881
0.71635 0 0.419425
0.819745 0.00466926 0.432166
0 0.124071 0.313954
0 0.130816 0.342229
0.0567025 0.125093 0.361196
0.233249 0.113375 0.369757
0.381445 0.109133 0.39118
0.517952 0.108385 0.408606
0.649683 0.110216 0.41912
0.763027 0.118044 0.433295
0.868605 0.128649 0.449531
0 0.21416 0.322011
0 0.230579 0.349935
0.062501 0.239002 0.377005
0.286549 0.228229 0.370169
0.471748 0.224063 0.368582
0.581994 0.233631 0.403632
0.695445 0.242298 0.427466
0.807385 0.251789 0.443458
0.91194 0.262898 0.4607
0 0.337865 0.336431
0.0342718 0.357458 0.368933
0.132464 0.371847 0.398795
0.366552 0.366567 0.366583
0.538323 0.358083 0.346792
0.661997 0.362676 0.365362
0.727794 0.380835 0.417136
0.833936 0.390661 0.436393
0.937377 0.401587 0.454826
0 0.484062 0.342962
0.0793622 0.503014 0.374929
0.190158 0.513771 0.400183
0.342977 0.512444 0.406943
0.540368 0.499123 0.366155
0.688594 0.498573 0.358175
0.765087 0.515129 0.39913
0.853513 0.529 0.429236
0.955962 0.539345 0.447745
0.0284428 0.62916 0.35079
0.114946 0.64625 0.381323
0.22594 0.655482 0.405768
0.366598 0.654276 0.418128
0.524163 0.64593 0.409476
0.674784 0.640284 0.391669
0.777325 0.648798 0.403967
0.865995 0.66099 0.426505
0.966461 0.669505 0.441199
0.0721141 0.768139 0.375479
0.158083 0.783215 0.403876
0.265324 0.790265 0.425849
0.397314 0.787747 0.437613
0.536187 0.780652 0.438682
0.6692 0.774502 0.430655
0.77966 0.775769 0.428641
0.877516 0.781643 0.433906
0.974945 0.787579 0.441825
0.122683 0.894942 0.411643
0.204852 0.906386 0.435401
0.306279 0.91014 0.452705
0.430594 0.905409 0.461082
0.560937 0.897368 0.462196
0.685283 0.890501 0.457465
0.795132 0.888411 0.451942
0.892119 0.891035 0.449882
0.986099 0.895033 0.45156
0.164157 1 0.440726
0.241886 1 0.459556
0.338094 1 0.472587
0.45684 1 0.478019
0.582483 1 0.478233
0.704128 0.993317 0.474403
0.812604 0.99086 0.469795
0.907607 0.993301 0.466926
0.999374 0.997467 0.466117
0 0.0568551 0.427771
0 0.0590982 0.462287
0 0.0517128 0.491615
0.114733 0.0357519 0.512032
0.277745 0.0188449 0.526024
0.433997 0.00608835 0.535851
0.572732 0.000259403 0.54583
0.689677 0.00239567 0.557626
0.796887 0.00881972 0.570993
0 0.137011 0.418906
0 0.144411 0.45452
0 0.141619 0.486458
0.152209 0.130236 0.511101
0.318013 0.120897 0.536004
0.479683 0.11487 0.549157
0.622003 0.115221 0.56144
0.741527 0.122621 0.575891
0.850797 0.133242 0.591852
0 0.230381 0.419303
0 0.247288 0.452537
0.019791 0.255375 0.487007
0.204349 0.246754 0.508034
0.406165 0.236973 0.519936
0.545525 0.241077 0.552956
0.673686 0.24744 0.574701
0.791547 0.256352 0.588937
0.89897 0.267231 0.604547
0 0.351492 0.440635
0 0.37409 0.472923
0.0730449 0.392432 0.503868
0.20734 0.398154 0.529549
0.463096 0.375341 0.511772
0.644892 0.367941 0.508034
0.726116 0.383047 0.555428
0.824063 0.395224 0.581033
0.929442 0.406027 0.597559
0 0.494621 0.461738
0.0480964 0.515541 0.496315
0.147356 0.529503 0.527565
0.276951 0.535317 0.554177
0.508873 0.508904 0.508919
0.699794 0.500404 0.482185
0.800412 0.510842 0.511742
0.852827 0.532662 0.56672
0.952728 0.543343 0.586175
0.00865187 0.639933 0.471031
0.090486 0.659052 0.504128
0.196399 0.670787 0.53312
0.334707 0.671763 0.553536
0.495094 0.661631 0.555535
0.683253 0.640543 0.507851
0.821103 0.641199 0.500542
0.884733 0.659312 0.543343
0.966018 0.671916 0.572
0.0561837 0.779004 0.495796
0.139025 0.795468 0.526177
0.244083 0.803738 0.551141
0.377249 0.801312 0.566979
0.522148 0.791531 0.571496
0.670573 0.777829 0.554726
0.805295 0.770626 0.532906
0.89366 0.778485 0.544686
0.975097 0.788052 0.565225
0.109377 0.904295 0.531914
0.189227 0.91632 0.557122
0.28954 0.920302 0.576455
0.415396 0.914763 0.587259
0.550484 0.904372 0.590143
0.681559 0.893812 0.583551
0.798779 0.888045 0.571267
0.89424 0.890196 0.567727
0.985656 0.894636 0.571206
0.151919 1 0.560082
0.227802 1 0.580011
0.323354 1 0.594491
0.443549 1 0.601602
0.572808 1 0.603189
0.698558 0.995071 0.599512
0.809918 0.991119 0.593256
0.906004 0.993027 0.587991
0.998367 0.997131 0.585672
0 0.0681773 0.521355
0 0.0707256 0.557198
0 0.0641031 0.590524
0.0655375 0.0481575 0.617929
0.230152 0.0298009 0.640009
0.392142 0.0150301 0.65684
0.537636 0.00750744 0.671931
0.659861 0.00872816 0.686992
0.771099 0.0148318 0.702449
0 0.14931 0.511864
0 0.156863 0.549737
0 0.156008 0.589853
0.0938888 0.145953 0.625513
0.267857 0.133425 0.654307
0.438361 0.124758 0.675456
0.589548 0.123232 0.693401
0.71545 0.129686 0.710704
0.829068 0.139879 0.727947
0 0.246036 0.509178
0 0.263096 0.546777
0 0.272374 0.590265
0.136019 0.268299 0.631617
0.322576 0.259205 0.665614
0.491798 0.255421 0.695552
0.644007 0.256245 0.713314
0.769253 0.263661 0.72874
0.880903 0.273686 0.744045
0 0.369085 0.526497
0 0.393484 0.55967
0.0325933 0.411887 0.593957
0.171298 0.41593 0.628611
0.376425 0.401511 0.654444
0.574105 0.388235 0.667857
0.697002 0.393378 0.701488
0.806012 0.403052 0.724208
0.91574 0.41294 0.738979
0 0.508507 0.560159
0.0160372 0.531289 0.594522
0.107607 0.548058 0.625406
0.226322 0.558297 0.651545
0.380102 0.558984 0.673396
0.628428 0.528267 0.656199
0.791211 0.519905 0.654551
0.853956 0.537835 0.702144
0.943938 0.54992 0.726909
0 0.652049 0.578882
0.0665904 0.673106 0.613931
0.16672 0.687465 0.646281
0.297108 0.692714 0.674144
0.443809 0.692485 0.699489
0.649882 0.649912 0.649912
0.836103 0.644388 0.625467
0.919799 0.656107 0.654459
0.964508 0.675898 0.705501
0.040116 0.790921 0.605417
0.119219 0.808911 0.637705
0.220493 0.818967 0.665782
0.351064 0.818433 0.687114
0.497459 0.809873 0.701457
0.647501 0.793225 0.697643
0.812604 0.769726 0.647852
0.93518 0.770016 0.640375
0.991562 0.785458 0.679591
0.0955367 0.91458 0.641764
0.172381 0.927413 0.668589
0.270375 0.932082 0.69044
0.395926 0.926665 0.705043
0.534325 0.915053 0.713176
0.671031 0.901305 0.711559
0.800687 0.889158 0.692164
0.918166 0.884367 0.670222
1 0.890898 0.68043
0.139162 1 0.669413
0.212634 1 0.690745
0.306722 1 0.707256
0.427405 1 0.717189
0.559838 1 0.722271
0.69044 0.998383 0.721767
0.807385 0.991806 0.715343
0.909422 0.99176 0.704967
1 0.996262 0.702144
0 0.0795148 0.591379
0 0.0823529 0.628443
0 0.0763867 0.664759
0.0264134 0.060853 0.697597
0.190066 0.0419928 0.727062
0.354528 0.0260319 0.751751
0.504417 0.0171664 0.773724
0.630762 0.0175174 0.794049
0.745525 0.023209 0.813397
0 0.161624 0.581628
0 0.169451 0.620951
0 0.169436 0.663493
0.0577707 0.160189 0.704585
0.228885 0.147463 0.74229
0.401587 0.137499 0.77348
0.558083 0.134356 0.799832
0.688914 0.139681 0.822904
0.806424 0.149142 0.843763
0 0.261463 0.578119
0 0.27866 0.618402
0 0.288258 0.66508
0.0983444 0.28629 0.71516
0.274571 0.278202 0.761547
0.453498 0.270726 0.797574
0.613443 0.268757 0.824537
0.744564 0.274296 0.845808
0.860502 0.28307 0.863981
0 0.387762 0.590616
0 0.412604 0.626276
0.00355535 0.43032 0.664988
0.137545 0.434791 0.709422
0.315511 0.425528 0.756146
0.500359 0.413718 0.793317
0.653193 0.410834 0.82594
0.782895 0.415076 0.846021
0.898039 0.423316 0.86276
0 0.525368 0.628931
0 0.549523 0.661677
0.0749523 0.568032 0.690944
0.194461 0.578332 0.717281
0.351461 0.576867 0.749081
0.554864 0.558694 0.778592
0.732738 0.544884 0.79733
0.831296 0.552102 0.831785
0.929381 0.560693 0.853788
0 0.666545 0.657847
0.0456245 0.689158 0.693172
0.141543 0.705394 0.725628
0.266972 0.71313 0.753063
0.406531 0.716793 0.776837
0.561868 0.714046 0.794232
0.781689 0.677745 0.782116
0.914778 0.667781 0.782513
0.966247 0.682475 0.825101
0.0265965 0.804227 0.690669
0.10219 0.823499 0.724056
0.199664 0.835096 0.753872
0.326543 0.83653 0.778439
0.469322 0.831449 0.800305
0.613443 0.824094 0.82034
0.778592 0.778607 0.778607
0.950866 0.772412 0.754314
1 0.781781 0.779019
0.0834974 0.926162 0.728099
0.157122 0.939818 0.756146
0.25211 0.945357 0.77995
0.375753 0.940688 0.797894
0.514397 0.929473 0.812055
0.65449 0.915236 0.821393
0.783261 0.90013 0.818112
0.925002 0.883223 0.77554
1 0.882429 0.76791
0.127855 1 0.75581
0.198581 1 0.778393
0.290501 1 0.796872
0.410544 1 0.809796
0.544717 1 0.819455
0.679362 1 0.825528
0.800839 0.995407 0.82652
0.9122 0.991699 0.813413
1 0.991348 0.795926
0 0.09131 0.640467
0 0.0944076 0.678584
0 0.0890211 0.717159
0 0.074052 0.754009
0.157076 0.0552224 0.789395
0.322194 0.0387579 0.821241
0.47451 0.0290379 0.850416
0.603601 0.0287175 0.877058
0.721111 0.0339971 0.901595
0 0.174472 0.630762
0 0.182712 0.671473
0 0.183505 0.715969
0.0300755 0.175128 0.760784
0.198474 0.162737 0.804837
0.371023 0.152331 0.844434
0.529931 0.148104 0.879408
0.663783 0.152407 0.909712
0.784192 0.161059 0.936019
0 0.277241 0.62742
0 0.294697 0.669871
0 0.304585 0.718532
0.0755322 0.303227 0.771099
0.24741 0.295583 0.823102
0.424155 0.287572 0.868498
0.585916 0.284031 0.905882
0.720226 0.287907 0.935531
0.839475 0.295445 0.959579
0 0.406775 0.636301
0 0.43154 0.674571
0 0.448447 0.716381
0.116655 0.452338 0.764233
0.28368 0.444999 0.818906
0.459892 0.434745 0.868391
0.623331 0.42855 0.908324
0.758755 0.43061 0.938308
0.878187 0.437095 0.961608
0 0.544167 0.673457
0 0.569085 0.705455
0.0491798 0.588113 0.735302
0.170611 0.597528 0.765911
0.322408 0.596429 0.808545
0.500847 0.584741 0.858259
0.668666 0.573587 0.900404
0.794415 0.573037 0.93518
0.910231 0.575662 0.955962
0 0.683177 0.710491
0.0270695 0.706996 0.744915
0.120073 0.724422 0.775631
0.242618 0.733211 0.800015
0.38117 0.736629 0.820783
0.537285 0.731212 0.847822
0.719097 0.710033 0.879927
0.86302 0.695094 0.901411
0.945724 0.698146 0.933028
0.0149386 0.819165 0.750149
0.0875715 0.839338 0.783475
0.182055 0.851881 0.813077
0.306188 0.854337 0.837125
0.446296 0.85069 0.857908
0.585641 0.846189 0.875319
0.723461 0.838956 0.888121
0.903929 0.803525 0.884153
1 0.791974 0.887434
0.0733349 0.938903 0.79115
0.143954 0.953185 0.819593
0.236103 0.959396 0.844114
0.35758 0.955383 0.863355
0.495094 0.944869 0.880095
0.63444 0.93225 0.895689
0.762081 0.921706 0.912352
0.892164 0.89218 0.892195
1 0.882292 0.867811
0.117968 1 0.819272
0.185916 1 0.842496
0.275471 1 0.862074
0.394232 1 0.876844
0.528756 1 0.889601
0.665324 1 0.901335
0.790814 1 0.912886
0.89752 0.997772 0.918379
1 0.991073 0.89044
0 0.103334 0.682322
0 0.106676 0.721309
0 0.101854 0.761517
0 0.08748 0.801251
0.127947 0.0690013 0.841062
0.292988 0.0524605 0.87866
0.446571 0.042298 0.914229
0.577386 0.0415656 0.947127
0.696864 0.0465553 0.977279
0 0.187655 0.672969
0 0.196414 0.714992
0 0.197986 0.761074
0.00610361 0.190463 0.808454
0.172519 0.178653 0.85684
0.344289 0.168246 0.902632
0.504051 0.163424 0.944823
0.639445 0.166979 0.982177
0.761685 0.174868 1
0 0.293278 0.670298
0 0.31107 0.714687
0 0.321294 0.764965
0.0555734 0.320455 0.819196
0.22475 0.313237 0.874449
0.399252 0.305104 0.925765
0.560861 0.300679 0.971084
0.6963 0.303304 1
0.817685 0.309911 1
0 0.425742 0.676631
0 0.450294 0.717159
0 0.466499 0.76144
0.098497 0.469764 0.81117
0.263264 0.462608 0.867643
0.436255 0.453056 0.922332
0.598428 0.446769 0.971313
0.734936 0.447929 1
0.856718 0.453132 1
0 0.563684 0.709575
0 0.588952 0.742092
0.0265812 0.607843 0.774044
0.150576 0.616114 0.808881
0.303105 0.614267 0.855955
0.471702 0.605081 0.912856
0.632563 0.595972 0.96585
0.768124 0.59266 1
0.888045 0.593027 1
0 0.701167 0.751431
0.00834669 0.725826 0.784726
0.0990768 0.743984 0.813581
0.219715 0.753094 0.836316
0.358053 0.755367 0.859968
0.508324 0.749783 0.897978
0.667567 0.735485 0.947356
0.802335 0.724056 0.989136
0.909819 0.719295 1
0.00282292 0.83505 0.797345
0.0729686 0.855817 0.82977
0.164981 0.868833 0.857908
0.286824 0.871687 0.87953
0.424308 0.868437 0.896315
0.561044 0.863554 0.909361
0.698222 0.853681 0.932342
0.844648 0.832898 0.965209
0.9682 0.816388 0.989258
0.0629435 0.952255 0.842298
0.130938 0.966918 0.870344
0.220676 0.97351 0.894347
0.340337 0.969757 0.912886
0.476661 0.959487 0.928557
0.614572 0.947524 0.942336
0.738201 0.938918 0.95494
0.846754 0.932616 0.96788
1 0.903929 0.977462
0.107973 1 0.872404
0.173388 1 0.895628
0.260777 1 0.915434
0.37821 1 0.930632
0.512551 1 0.944259
0.649638 1 0.957687
0.776013 1 0.973297
0.880018 1 0.992004
1 1 1
