LUTS/06_VSCO_LUTs_Deep Green.cube
TITLE "Generated by Resolve"
LUT_3D_SIZE 5
0 0 0.0708782
0.15288 0 0.0991836
0.412879 0 0.0867475
0.686656 0 0.0743267
0.890181 0 0.0739757
0 0.13666 0.15227
0.160647 0.142596 0.100847
0.429572 0.129885 0.094316
0.714061 0.123644 0.0914321
0.931563 0.140154 0.102205
0 0.41088 0.277836
0.0951858 0.448798 0.191455
0.440238 0.439857 0.0972915
0.728649 0.440238 0.098558
0.947509 0.456886 0.110552
0 0.708659 0.396155
0.0607309 0.74931 0.305608
0.384497 0.754772 0.121096
0.736858 0.734386 0.100893
0.948638 0.744396 0.107988
0 0.991058 0.518074
0.0634318 1 0.417838
0.338964 1 0.213321
0.728237 0.986969 0.109529
0.955093 0.977096 0.109758
0 0 0.179751
0.139101 0 0.246052
0.413046 0 0.224323
0.687114 0 0.212192
0.89163 0 0.212619
0 0.155489 0.213733
0.129198 0.156527 0.227115
0.365225 0.123857 0.254887
0.619684 0.119188 0.261906
0.937499 0.147753 0.244038
0 0.408209 0.390066
0.153063 0.439078 0.345357
0.446891 0.446433 0.239017
0.734722 0.446998 0.24033
0.953536 0.463661 0.252247
0 0.701534 0.52726
0.119829 0.739178 0.460868
0.376745 0.762249 0.291234
0.741283 0.739498 0.241215
0.951736 0.748119 0.247456
0 0.980011 0.654017
0.119219 1 0.571984
0.347036 1 0.395621
0.722164 0.989639 0.249058
0.955215 0.977447 0.246784
0 0 0.362341
0 0 0.45893
0.392065 0 0.44979
0.682658 0 0.432013
0.88838 0 0.433783
0 0.186648 0.359899
0.0407416 0.184253 0.411322
0.325078 0.117998 0.47538
0.495247 0.107805 0.486336
0.938308 0.149386 0.482765
0 0.423713 0.507912
0.17528 0.443259 0.493263
0.437476 0.451194 0.470069
0.658671 0.44445 0.482078
0.810437 0.46659 0.507897
0 0.692027 0.700435
0.205081 0.718013 0.67274
0.425452 0.742061 0.589624
0.740047 0.738582 0.476844
0.949172 0.74583 0.484352
0.0275731 0.957961 0.861097
0.213596 0.978119 0.807584
0.414893 0.993194 0.693019
0.695827 0.989532 0.500053
0.949905 0.972198 0.480552
0 0.0130922 0.597101
0 0 0.683726
0.280583 0 0.779232
0.677409 0 0.724529
0.885359 0 0.727489
0 0.224155 0.583947
0 0.22118 0.650248
0.249424 0.181552 0.770336
0.5841 0.119203 0.763577
0.938827 0.150988 0.791241
0 0.471778 0.651896
0.0642863 0.491707 0.662776
0.327977 0.4916 0.712978
0.613809 0.445624 0.778378
0.629358 0.472633 0.799329
0 0.716258 0.847654
0.199268 0.735607 0.833402
0.462608 0.740871 0.795834
0.722118 0.742718 0.772427
0.945861 0.742977 0.788754
0.0608682 0.957809 1
0.27216 0.966171 1
0.513817 0.961776 0.958343
0.72813 0.966125 0.871015
0.943633 0.966918 0.781415
0 0.0445411 0.79559
0 0.0245365 0.878782
0.106981 0 0.997543
0.624216 0 1
0.883696 0 0.986679
0 0.258961 0.780575
0 0.257023 0.853117
0.141375 0.232471 0.968597
0.63711 0.160815 1
0.937682 0.158618 1
0 0.516167 0.815595
0 0.53312 0.849775
0.241947 0.529809 0.91928
0.576532 0.498985 1
0.753872 0.47895 1
0 0.760174 0.962219
0.118807 0.77998 0.953384
0.373022 0.784268 0.93695
0.632654 0.777798 0.975143
0.921263 0.750469 1
0.0225986 0.986175 1
0.236622 0.991775 1
0.48896 0.982116 1
0.736996 0.972244 1
0.919371 0.974807 1
