LUTS/06_VSCO_LUTs_Deep Green.cube
TITLE "Generated by Resolve"
LUT_3D_SIZE 9
0 0 0.0708782
0.0307927 0 0.107881
0.15288 0 0.0991836
0.278523 0 0.0941787
0.412879 0 0.0867475
0.560433 0 0.07953
0.686656 0 0.0743267
0.792996 0 0.0728618
0.890181 0 0.0739757
0 0.0374762 0.0771496
0.0215457 0.0327153 0.0960098
0.157748 0.0204318 0.100664
0.283604 0.0116426 0.095964
0.386969 0 0.115999
0.569146 0 0.08336
0.696788 0 0.0801709
0.806256 0 0.0813001
0.907195 0 0.0852979
0 0.13666 0.15227
0.0536812 0.139178 0.132799
0.160647 0.142596 0.100847
0.289525 0.13727 0.0983597
0.429572 0.129885 0.094316
0.58349 0.1243 0.0919203
0.714061 0.123644 0.0914321
0.827237 0.129839 0.0955673
0.931563 0.140154 0.102205
0 0.265309 0.218677
0.0282597 0.277806 0.187503
0.122774 0.293797 0.131548
0.291981 0.286152 0.0980392
0.436393 0.283497 0.096849
0.594369 0.281987 0.096437
0.725582 0.284108 0.0982071
0.839872 0.291814 0.103059
0.944503 0.302312 0.109987
0 0.41088 0.277836
0.00242618 0.42884 0.242802
0.0951858 0.448798 0.191455
0.261173 0.450233 0.106126
0.440238 0.439857 0.0972915
0.598154 0.438544 0.0969253
0.728649 0.440238 0.098558
0.842664 0.447181 0.10341
0.947509 0.456886 0.110552
0 0.558038 0.336049
0 0.577356 0.298344
0.0745708 0.597345 0.247456
0.212482 0.607614 0.154131
0.423117 0.592813 0.0974746
0.601373 0.585946 0.0970779
0.731624 0.5879 0.0988632
0.845014 0.594537 0.103441
0.948821 0.603403 0.109819
0 0.708659 0.396155
0 0.728588 0.356695
0.0607309 0.74931 0.305608
0.184878 0.763073 0.216571
0.384497 0.754772 0.121096
0.598154 0.737575 0.0991836
0.736858 0.734386 0.100893
0.847684 0.738567 0.103746
0.948638 0.744396 0.107988
0 0.854673 0.458274
0 0.873838 0.416648
0.0606699 0.892912 0.364233
0.176898 0.905562 0.277378
0.357504 0.901274 0.166033
0.581827 0.879332 0.110277
0.738872 0.866819 0.104616
0.853712 0.865202 0.106676
0.951583 0.867521 0.108583
0 0.991058 0.518074
0 1 0.473152
0.0634318 1 0.417838
0.173358 1 0.331075
0.338964 1 0.213321
0.557351 1 0.130175
0.728237 0.986969 0.109529
0.853269 0.978912 0.108248
0.955093 0.977096 0.109758
0 0 0.121584
0 0 0.171466
0.153445 0 0.163241
0.279118 0 0.157992
0.413489 0 0.150515
0.561151 0 0.143328
0.687358 0 0.138216
0.793896 0 0.136904
0.89134 0 0.138231
0 0.0474861 0.120409
0 0.0418708 0.146136
0.158282 0.02121 0.164904
0.279164 0.0122835 0.162173
0.327123 0 0.204303
0.475288 0 0.198856
0.698528 0 0.144823
0.808362 0 0.146242
0.909697 0 0.150576
0 0.144137 0.181064
0.0496071 0.145357 0.165286
0.161883 0.144503 0.165927
0.291417 0.13959 0.163119
0.418143 0.13048 0.167239
0.55462 0.12314 0.174929
0.717113 0.127443 0.157061
0.830518 0.133989 0.16141
0.935012 0.144533 0.168185
0 0.265538 0.264836
0.0529183 0.274952 0.244892
0.143313 0.290471 0.212131
0.29514 0.289982 0.163729
0.440162 0.287617 0.162722
0.598215 0.28629 0.162417
0.728557 0.288411 0.164538
0.843366 0.296147 0.16939
0.947875 0.306462 0.176226
0 0.40911 0.333974
0.0307164 0.425498 0.306722
0.120989 0.445029 0.268544
0.257404 0.455253 0.18294
0.444144 0.443702 0.163226
0.601816 0.442329 0.162799
0.732174 0.444144 0.164508
0.846204 0.451118 0.169741
0.951034 0.460807 0.176852
0 0.55555 0.396628
0.01149 0.573709 0.364309
0.101213 0.593408 0.323095
0.219043 0.608591 0.240894
0.423163 0.597803 0.165133
0.605066 0.589899 0.163012
0.735088 0.591775 0.164721
0.848295 0.598276 0.169543
0.951904 0.606943 0.175769
0 0.705776 0.459129
0 0.725063 0.423865
0.0878767 0.745418 0.381125
0.199313 0.761624 0.303059
0.380728 0.759609 0.197726
0.599634 0.741482 0.164874
0.73962 0.737545 0.166201
0.850095 0.741375 0.169146
0.950744 0.746853 0.173144
0 0.85124 0.522866
0 0.869718 0.484703
0.0873121 0.88835 0.439231
0.194186 0.902327 0.361715
0.35584 0.903487 0.248631
0.578958 0.882841 0.177874
0.739757 0.869047 0.169451
0.855085 0.86685 0.171267
0.952697 0.868849 0.172961
0 0.986496 0.582956
0.0028687 1 0.541115
0.0891432 1 0.492027
0.191623 1 0.413458
0.340414 1 0.298024
0.551431 1 0.201236
0.726299 0.988739 0.174441
0.853361 0.979934 0.172244
0.955657 0.977829 0.173693
0 0 0.179751
0 0 0.228946
0.139101 0 0.246052
0.278676 0 0.23183
0.413046 0 0.224323
0.560769 0 0.217182
0.687114 0 0.212192
0.793851 0 0.211078
0.89163 0 0.212619
0 0.0572213 0.174472
0 0.0509651 0.204089
0.131701 0.0276951 0.247883
0.249119 0.0104372 0.241688
0.282216 0 0.266529
0.404746 0 0.268681
0.699382 0 0.219577
0.809567 0 0.221286
0.911315 0 0.22591
0 0.155489 0.213733
0.0224155 0.157214 0.205722
0.129198 0.156527 0.227115
0.270848 0.138125 0.242863
0.365225 0.123857 0.254887
0.49279 0.116823 0.261097
0.619684 0.119188 0.261906
0.832853 0.137026 0.237232
0.937499 0.147753 0.244038
0 0.269703 0.305821
0.0655985 0.276249 0.293523
0.17116 0.285924 0.280247
0.297368 0.292729 0.239414
0.442893 0.290639 0.23856
0.586511 0.287449 0.242496
0.697032 0.288014 0.250111
0.845823 0.29926 0.245121
0.950271 0.309499 0.251637
0 0.408209 0.390066
0.058381 0.421927 0.371633
0.153063 0.439078 0.345357
0.260533 0.455634 0.281453
0.446891 0.446433 0.239017
0.604379 0.44509 0.23859
0.734722 0.446998 0.24033
0.848035 0.454002 0.245624
0.953536 0.463661 0.252247
0 0.552377 0.460395
0.0420996 0.568612 0.434852
0.133333 0.587198 0.401831
0.237385 0.604578 0.338888
0.419486 0.602243 0.245319
0.607645 0.592767 0.238788
0.737514 0.594537 0.240391
0.850523 0.600885 0.244953
0.953902 0.609339 0.250767
0 0.701534 0.52726
0.0295262 0.719631 0.497353
0.119829 0.739178 0.460868
0.222644 0.756222 0.397513
0.376745 0.762249 0.291234
0.599176 0.744427 0.240543
0.741283 0.739498 0.241215
0.851408 0.742992 0.243824
0.951736 0.748119 0.247456
0 0.846113 0.592996
0.0299687 0.863554 0.558938
0.118349 0.881361 0.518914
0.218555 0.895628 0.453285
0.357839 0.902403 0.346441
0.573022 0.885527 0.256718
0.739162 0.870192 0.243549
0.855406 0.867308 0.245075
0.952728 0.869017 0.246509
0 0.980011 0.654017
0.0336767 0.99443 0.615778
0.119219 1 0.571984
0.216068 1 0.503212
0.347036 1 0.395621
0.542702 1 0.285634
0.722164 0.989639 0.249058
0.852171 0.979919 0.245396
0.955215 0.977447 0.246784
0 0 0.257877
0 0 0.303059
0.0757 0 0.351598
0.27364 0 0.331914
0.410712 0 0.320195
0.558465 0 0.31194
0.685222 0 0.306294
0.792172 0 0.305211
0.890318 0 0.30724
0 0.0683146 0.250141
0 0.0615091 0.28191
0.0636454 0.0464179 0.331823
0.195422 0.00637827 0.341054
0.240696 0 0.340505
0.354147 0 0.339117
0.698634 0 0.315755
0.809201 0 0.318044
0.911345 0 0.323735
0 0.169406 0.269871
0 0.170123 0.275547
0.0914626 0.168521 0.305699
0.251194 0.137499 0.345068
0.309972 0.115541 0.347417
0.409079 0.10634 0.353338
0.546349 0.112459 0.355245
0.833524 0.138079 0.337774
0.938262 0.148959 0.346105
0 0.280888 0.347509
0.0471351 0.287526 0.336828
0.157092 0.296071 0.328496
0.281102 0.299428 0.332403
0.426719 0.289021 0.341253
0.53106 0.281239 0.347204
0.629694 0.282582 0.354604
0.730465 0.293263 0.362936
0.950942 0.310582 0.355795
0 0.410544 0.448417
0.0771649 0.421027 0.438392
0.184405 0.433112 0.426825
0.295567 0.445045 0.39736
0.447684 0.447318 0.340139
0.605203 0.446097 0.33959
0.719844 0.447166 0.343221
0.80885 0.454154 0.352575
0.954269 0.464714 0.356695
0 0.549065 0.532387
0.0740063 0.562219 0.515953
0.172213 0.577737 0.49514
0.275853 0.593194 0.453285
0.40972 0.604715 0.364431
0.608438 0.59379 0.339818
0.73814 0.595438 0.341573
0.850919 0.601602 0.347051
0.953185 0.609873 0.354299
0 0.695277 0.608591
0.0668193 0.71107 0.586999
0.160937 0.728496 0.560128
0.261997 0.744259 0.512474
0.382315 0.758007 0.42591
0.594217 0.74609 0.343236
0.7411 0.739467 0.341848
0.850889 0.742611 0.344747
0.950896 0.747402 0.348989
0 0.837598 0.682338
0.0702068 0.852995 0.65568
0.160754 0.869047 0.623438
0.258396 0.882231 0.570825
0.373678 0.893645 0.482902
0.560525 0.88687 0.370809
0.735561 0.869688 0.344411
0.853864 0.865797 0.345403
0.950957 0.867247 0.346899
0 0.969055 0.750149
0.0754559 0.981735 0.717891
0.162097 0.994659 0.680232
0.256046 1 0.622797
0.367971 1 0.532189
0.530831 1 0.412055
0.712825 0.98941 0.353429
0.848508 0.978195 0.345632
0.952972 0.975204 0.346853
0 0 0.362341
0 0 0.404898
0 0 0.45893
0.224613 0 0.48217
0.392065 0 0.44979
0.555428 0 0.438956
0.682658 0 0.432013
0.789883 0 0.430869
0.88838 0 0.433783
0 0.0828565 0.353079
0 0.0757 0.386221
0 0.0650339 0.431785
0.143496 0.0221561 0.484092
0.26865 0 0.461509
0.364157 0 0.456855
0.697276 0 0.445212
0.808209 0 0.448432
0.91075 0 0.455741
0 0.186648 0.359899
0 0.186191 0.376745
0.0407416 0.184253 0.411322
0.18967 0.165057 0.470542
0.325078 0.117998 0.47538
0.381918 0.103075 0.480125
0.495247 0.107805 0.486336
0.833494 0.138415 0.47303
0.938308 0.149386 0.482765
0 0.300969 0.408179
0 0.308324 0.404761
0.105196 0.316625 0.411093
0.232151 0.317021 0.439704
0.414191 0.288548 0.478996
0.474189 0.274678 0.483146
0.540383 0.274983 0.493919
0.643915 0.289235 0.504402
0.950881 0.310933 0.49398
0 0.423713 0.507912
0.0621805 0.433249 0.500298
0.17528 0.443259 0.493263
0.302312 0.448875 0.478706
0.437476 0.451194 0.470069
0.587472 0.444923 0.475853
0.658671 0.44445 0.482078
0.728588 0.453361 0.494499
0.810437 0.46659 0.507897
0 0.552392 0.608545
0.091783 0.562417 0.599496
0.201602 0.573526 0.590295
0.321874 0.581872 0.570459
0.44007 0.592935 0.531685
0.608423 0.594049 0.475578
0.737942 0.595544 0.477424
0.832197 0.603143 0.484215
0.902754 0.614878 0.494499
0 0.692027 0.700435
0.102068 0.704509 0.687831
0.205081 0.718013 0.67274
0.31487 0.729229 0.642145
0.425452 0.742061 0.589624
0.580331 0.748348 0.489967
0.740047 0.738582 0.476844
0.84947 0.74139 0.479835
0.949172 0.74583 0.484352
0.0126497 0.830045 0.78558
0.113466 0.842329 0.767544
0.210239 0.85507 0.745541
0.312657 0.865003 0.706035
0.419715 0.875578 0.644739
0.550423 0.884001 0.542458
0.727642 0.86923 0.480537
0.851423 0.863462 0.479545
0.948348 0.864652 0.48101
0.0275731 0.957961 0.861097
0.122499 0.96788 0.83653
0.213596 0.978119 0.807584
0.310414 0.985428 0.760876
0.414893 0.993194 0.693019
0.534539 1 0.591867
0.695827 0.989532 0.500053
0.842222 0.976181 0.479866
0.949905 0.972198 0.480552
0 0 0.476417
0 0 0.517418
0 0 0.566995
0.12108 0 0.622583
0.372183 0 0.610819
0.551949 0 0.580133
0.680079 0 0.572641
0.787594 0 0.571817
0.886488 0 0.575311
0 0.0987716 0.466529
0 0.0914168 0.500221
0 0.0822309 0.543297
0.0935836 0.0534676 0.603235
0.293111 0 0.618326
0.436301 0 0.589853
0.695949 0 0.588159
0.807248 0 0.592111
0.910155 0 0.60061
0 0.204669 0.466743
0 0.203555 0.490242
0 0.201709 0.52723
0.127749 0.189731 0.58143
0.318303 0.14168 0.63473
0.441459 0.111131 0.614237
0.507866 0.109758 0.619913
0.833371 0.138705 0.621485
0.938231 0.149752 0.633341
0 0.322957 0.493034
0 0.329946 0.500816
0.0488289 0.337179 0.520607
0.178286 0.336324 0.557763
0.345251 0.318379 0.62298
0.491768 0.277882 0.625727
0.512139 0.273503 0.633448
0.583871 0.28719 0.647471
0.950744 0.311254 0.646769
0 0.445838 0.570428
0.0142367 0.456168 0.565621
0.123812 0.466804 0.564034
0.246616 0.47216 0.563195
0.383734 0.470512 0.588083
0.576272 0.444648 0.62501
0.596841 0.442283 0.628504
0.622827 0.453025 0.643229
0.703105 0.469154 0.659709
0 0.567056 0.673014
0.0726329 0.576593 0.665721
0.18558 0.58674 0.659175
0.313237 0.592386 0.644739
0.451072 0.595544 0.625483
0.599985 0.596658 0.624674
0.717906 0.596811 0.626139
0.759854 0.610101 0.633738
0.801907 0.626184 0.646418
0 0.698466 0.779248
0.111101 0.708659 0.771771
0.222354 0.718914 0.764019
0.345937 0.724437 0.746456
0.475975 0.72842 0.71989
0.599222 0.738033 0.675166
0.738766 0.737499 0.624903
0.847852 0.739986 0.628077
0.947234 0.744076 0.633097
0.0311894 0.830167 0.878233
0.138949 0.839414 0.866697
0.244114 0.848371 0.853269
0.358099 0.852995 0.827237
0.476493 0.85742 0.787213
0.58851 0.86656 0.727413
0.711055 0.869917 0.641108
0.848768 0.860975 0.62652
0.945556 0.861906 0.627985
0.0560006 0.952941 0.964248
0.15761 0.959731 0.946471
0.256153 0.96643 0.926101
0.361822 0.969329 0.891524
0.472999 0.972747 0.840925
0.579293 0.979904 0.773159
0.683635 0.985428 0.685618
0.831434 0.975128 0.629252
0.946624 0.969131 0.627039
0 0.0130922 0.597101
0 0.00349432 0.637613
0 0 0.683726
0.0214084 0 0.744183
0.280583 0 0.779232
0.528237 0 0.747662
0.677409 0 0.724529
0.786099 0 0.723049
0.885359 0 0.727489
0 0.116457 0.586999
0 0.109117 0.621424
0 0.100633 0.663676
0.0308537 0.0799725 0.720027
0.26656 0.0344701 0.777691
0.538598 0 0.7635
0.694316 0 0.743832
0.80708 0 0.747417
0.910307 0 0.757076
0 0.224155 0.583947
0 0.222782 0.611749
0 0.22118 0.650248
0.0663157 0.211398 0.702113
0.249424 0.181552 0.770336
0.473671 0.129381 0.782376
0.5841 0.119203 0.763577
0.833951 0.139895 0.7794
0.938827 0.150988 0.791241
0 0.346136 0.597543
0 0.352514 0.614221
0 0.358892 0.641596
0.122469 0.357488 0.682506
0.27953 0.346624 0.742947
0.491753 0.301137 0.797635
0.574838 0.281453 0.77644
0.59913 0.289967 0.783902
0.951308 0.312413 0.804517
0 0.471778 0.651896
0 0.48188 0.654429
0.0642863 0.491707 0.662776
0.187869 0.495079 0.677073
0.327977 0.4916 0.712978
0.510094 0.473136 0.782559
0.613809 0.445624 0.778378
0.58967 0.454948 0.780926
0.629358 0.472633 0.799329
0 0.59089 0.7393
0.0251469 0.601053 0.733394
0.135561 0.611795 0.729107
0.259571 0.617914 0.720287
0.393088 0.620676 0.717067
0.541421 0.618494 0.748302
0.699397 0.600214 0.785534
0.687037 0.618967 0.778058
0.821637 0.624811 0.794308
0 0.716258 0.847654
0.0867781 0.726024 0.840589
0.199268 0.735607 0.833402
0.325612 0.739834 0.817441
0.462608 0.740871 0.795834
0.605905 0.741802 0.773159
0.722118 0.742718 0.772427
0.843366 0.740337 0.783734
0.945861 0.742977 0.788754
0.0233921 0.841169 0.954589
0.134585 0.848753 0.945068
0.24445 0.855512 0.934646
0.366949 0.856504 0.914748
0.500801 0.854475 0.888228
0.63682 0.853025 0.858427
0.740124 0.856107 0.826978
0.846204 0.859327 0.781399
0.943358 0.859861 0.782712
0.0608682 0.957809 1
0.167361 0.96231 1
0.27216 0.966171 1
0.387823 0.964797 0.992798
0.513817 0.961776 0.958343
0.636011 0.961364 0.916869
0.72813 0.966125 0.871015
0.815244 0.974334 0.808942
0.943633 0.966918 0.781415
0 0.0291447 0.701152
0 0.019791 0.741222
0 0.0087129 0.785657
0 0 0.843885
0.184558 0 0.900816
0.473259 0 0.901076
0.661036 0 0.870619
0.784176 0 0.858701
0.88574 0 0.861524
0 0.132708 0.690883
0 0.125475 0.725841
0 0.117556 0.767727
0 0.10013 0.821225
0.178531 0.0636759 0.887816
0.472877 0.0108797 0.91635
0.675456 0 0.893507
0.80589 0 0.885466
0.911925 0 0.892805
0 0.241978 0.686641
0 0.240665 0.717006
0 0.239429 0.756542
0.018204 0.23061 0.807813
0.19292 0.210147 0.87512
0.471336 0.165362 0.936141
0.693492 0.141314 0.926238
0.832395 0.143374 0.91928
0.940764 0.15378 0.927489
0 0.366842 0.69424
0 0.372885 0.716274
0 0.378866 0.747707
0.0764019 0.377264 0.790417
0.229709 0.367926 0.848554
0.439048 0.337774 0.924071
0.609705 0.300175 0.929213
0.686656 0.298436 0.91577
0.953231 0.315114 0.940826
0 0.494911 0.734264
0 0.504417 0.743236
0.0153506 0.513283 0.758709
0.140154 0.515358 0.780926
0.282048 0.511162 0.821103
0.453086 0.499443 0.887373
0.614786 0.46772 0.93135
0.660746 0.460151 0.912871
0.649409 0.475746 0.916899
0 0.614603 0.805097
0 0.624842 0.803311
0.0872511 0.635431 0.804593
0.210224 0.640833 0.805173
0.344701 0.641794 0.816266
0.494911 0.637903 0.856046
0.638697 0.626627 0.913848
0.700206 0.621775 0.912703
0.887907 0.618631 0.928252
0 0.738003 0.905272
0.0492256 0.747997 0.898619
0.159869 0.757824 0.892164
0.283452 0.76231 0.877974
0.416876 0.763516 0.86157
0.556023 0.763455 0.855467
0.674525 0.760769 0.878904
0.820523 0.746899 0.92578
0.945724 0.743206 0.922652
0 0.858564 1
0.109911 0.865751 1
0.219669 0.872084 0.991943
0.342412 0.872496 0.97203
0.477348 0.869627 0.94609
0.616602 0.866453 0.91899
0.729992 0.864942 0.899001
0.826352 0.866087 0.899229
0.942458 0.859205 0.915694
0.0469825 0.970062 1
0.15494 0.973602 1
0.261799 0.976287 1
0.381338 0.973129 1
0.514488 0.967193 1
0.650507 0.961334 0.997467
0.762127 0.958007 0.972747
0.854597 0.96022 0.953246
0.938399 0.967056 0.91574
0 0.0445411 0.79559
0 0.0352026 0.835172
0 0.0245365 0.878782
0 0.00154116 0.934203
0.106981 0 0.997543
0.39762 0 1
0.624216 0 1
0.77023 0 0.991974
0.883696 0 0.986679
0 0.148196 0.785122
0 0.141131 0.820523
0 0.1337 0.862257
0 0.118135 0.914092
0.112749 0.088014 0.980652
0.390967 0.0377203 1
0.631388 0.00344854 1
0.789883 0 1
0.910094 0.00306706 1
0 0.258961 0.780575
0 0.257847 0.812757
0 0.257023 0.853117
0 0.248997 0.904128
0.141375 0.232471 0.968597
0.389105 0.195605 1
0.63711 0.160815 1
0.811353 0.15259 1
0.937682 0.158618 1
0 0.386297 0.784939
0 0.392157 0.810636
0 0.39794 0.844633
0.0360571 0.396246 0.888395
0.188525 0.387396 0.945632
0.385977 0.36643 1
0.618326 0.332799 1
0.813535 0.31696 1
0.948363 0.320317 1
0 0.516167 0.815595
0 0.525078 0.829496
0 0.53312 0.849775
0.0987564 0.534386 0.876753
0.241947 0.529809 0.91928
0.407111 0.520058 0.982528
0.576532 0.498985 1
0.700175 0.476539 1
0.753872 0.47895 1
0 0.63682 0.873472
0 0.646937 0.875929
0.0440375 0.657084 0.882719
0.167117 0.661555 0.890913
0.303166 0.661143 0.910475
0.454124 0.656306 0.953689
0.593332 0.648432 1
0.701442 0.637354 1
0.922271 0.618128 1
0 0.760174 0.962219
0.00972 0.77023 0.957305
0.118807 0.77998 0.953384
0.240787 0.784009 0.944381
0.373022 0.784268 0.93695
0.512444 0.782132 0.94493
0.632654 0.777798 0.975143
0.751385 0.771496 1
0.921263 0.750469 1
0 0.878309 1
0.0770581 0.88542 1
0.18529 0.891691 1
0.305928 0.892164 1
0.438117 0.889464 1
0.573602 0.886229 0.98024
0.684611 0.883558 0.974823
0.783123 0.88188 0.993652
0.896056 0.873075 1
0.0225986 0.986175 1
0.130144 0.989395 1
0.236622 0.991775 1
0.355856 0.988342 1
0.48896 0.982116 1
0.624887 0.976013 1
0.736996 0.972244 1
0.832349 0.972915 1
0.919371 0.974807 1
