LUTS/06_VSCO_LUTs_Deep Green.cube
TITLE "Generated by Resolve"
LUT_3D_SIZE 33
0 0 0.0708782
0 0 0.0818647
0 0 0.0953078
0 0 0.107836
0.0307927 0 0.107881
0.068574 0 0.102724
0.0977646 0 0.100603
0.125078 0 0.100099
0.15288 0 0.0991836
0.182467 0 0.0983597
0.213443 0 0.097261
0.245808 0 0.0958572
0.278523 0 0.0941787
0.311315 0 0.0923476
0.344411 0 0.0904555
0.378119 0 0.0885481
0.412879 0 0.0867475
0.448737 0 0.0849165
0.485557 0 0.0830701
0.523171 0 0.0812695
0.560433 0 0.07953
0.596017 0 0.0779278
0.627253 0 0.0764935
0.657511 0 0.075288
0.686656 0 0.0743267
0.714717 0 0.0736095
0.741741 0 0.0731365
0.767773 0 0.0729076
0.792996 0 0.0728618
0.81767 0 0.0729992
0.841947 0 0.0732586
0.866056 0 0.0735943
0.890181 0 0.0739757
0 0 0.0671397
0 0 0.0766766
0 0 0.0882734
0 0 0.102419
0.0281682 0 0.108156
0.0688334 0 0.103075
0.0986191 0 0.100679
0.126009 0 0.100343
0.154253 0 0.099733
0.18378 0 0.0988479
0.21471 0 0.0976883
0.247028 0 0.0962539
0.279683 0 0.0945449
0.312444 0 0.0926986
0.345556 0 0.0907759
0.379294 0 0.0888685
0.414084 0 0.0870832
0.450019 0 0.0852674
0.486915 0 0.0834516
0.52459 0 0.0816815
0.561898 0 0.0800183
0.597482 0 0.0784772
0.628702 0 0.0771038
0.659037 0 0.0759594
0.688289 0 0.0751049
0.716472 0 0.0744945
0.743618 0 0.0741283
0.769787 0 0.0740215
0.795178 0 0.0741131
0.820005 0 0.0743877
0.84448 0 0.0747845
0.868803 0 0.0752728
0.893156 0 0.0758373
0 0 0.0661326
0 0 0.0733196
0 0 0.0829633
0 0 0.0958267
0.024445 0 0.107362
0.0698558 0 0.104143
0.100221 0 0.101167
0.12755 0 0.100694
0.155764 0 0.100389
0.185275 0 0.0994736
0.21622 0 0.0982986
0.248508 0 0.096849
0.281147 0 0.09514
0.313924 0 0.0932937
0.347082 0 0.0914015
0.380911 0 0.0895399
0.415808 0 0.0877852
0.450843 0 0.0868696
0.480186 0 0.0914321
0.526726 0 0.0825818
0.564111 0 0.0809796
0.59968 0 0.0795453
0.6309 0 0.0782788
0.661372 0 0.0772717
0.690761 0 0.0765087
0.719097 0 0.0760357
0.74641 0 0.0758221
0.772763 0 0.0758679
0.798367 0 0.0761273
0.823423 0 0.0765698
0.848142 0 0.0771649
0.872709 0 0.0778363
0.897307 0 0.0785992
0 0.0134127 0.0685588
0 0.0129854 0.0722972
0 0.0118105 0.0790723
0 0.00923171 0.0893568
0.0201267 0.00341802 0.103166
0.0695354 0 0.10486
0.101198 0 0.101442
0.128511 0 0.100954
0.156725 0 0.100649
0.186267 0 0.099733
0.217258 0 0.0985733
0.249592 0 0.0971237
0.282261 0 0.0954757
0.315099 0 0.0936751
0.348333 0 0.0918288
0.381415 0 0.0907301
0.407187 0 0.0965896
0.426322 0 0.109361
0.463004 0 0.108431
0.528786 0 0.0834363
0.566308 0 0.0819562
0.601862 0 0.0806287
0.633158 0 0.0794995
0.663798 0 0.0786297
0.693385 0 0.0780499
0.721935 0 0.0777447
0.749477 0 0.0777142
0.776059 0 0.0779431
0.801907 0 0.0784009
0.827207 0 0.0790265
0.852171 0 0.0798199
0.876982 0 0.080705
0.901839 0 0.0816358
0 0.0374762 0.0771496
0 0.0375219 0.0769055
0 0.0371252 0.078996
0 0.0355993 0.0849928
0.0215457 0.0327153 0.0960098
0.0675517 0.0252537 0.105303
0.102129 0.0225223 0.101701
0.129473 0.021622 0.101228
0.157748 0.0204318 0.100664
0.187366 0.0188602 0.100069
0.218448 0.016846 0.0989395
0.250858 0.0144198 0.0975509
0.283604 0.0116426 0.095964
0.315709 0.00859083 0.0948196
0.339452 0.00486763 0.100374
0.356207 0.000595102 0.112978
0.386969 0 0.115999
0.420813 0 0.117372
0.460014 0 0.114717
0.529747 0 0.0861219
0.569146 0 0.08336
0.604639 0 0.0821851
0.636103 0 0.0812543
0.666972 0 0.0805524
0.696788 0 0.0801709
0.725567 0 0.0800641
0.753353 0 0.0802319
0.780179 0 0.0806592
0.806256 0 0.0813001
0.8318 0 0.0821241
0.857023 0 0.0831006
0.882078 0 0.084184
0.907195 0 0.0852979
0 0.0608682 0.0921492
0 0.0611276 0.0890364
0 0.0612039 0.0866865
0.00469978 0.0607004 0.0861219
0.0310063 0.0595407 0.0908217
0.0629435 0.0561074 0.102403
0.102953 0.051545 0.101869
0.130388 0.050721 0.101457
0.15877 0.0496223 0.100877
0.188495 0.0481575 0.10042
0.219715 0.0462806 0.0993668
0.25153 0.043946 0.0985122
0.281285 0.041062 0.0990921
0.310369 0.0378729 0.100557
0.340047 0.0345922 0.102266
0.370932 0.0314336 0.104067
0.403052 0.0285191 0.105928
0.436652 0.0256809 0.107668
0.471305 0.0229496 0.10927
0.526299 0.0224155 0.0934157
0.572564 0.0211643 0.0851606
0.60795 0.0193942 0.0841993
0.639628 0.0179904 0.0834363
0.670741 0.0170291 0.082948
0.700786 0.0165408 0.0827497
0.729809 0.0165255 0.0828412
0.757824 0.016968 0.0831922
0.784894 0.0178531 0.0838178
0.811231 0.0191043 0.0846723
0.837034 0.0206607 0.0856947
0.862486 0.022446 0.0868696
0.887816 0.0243992 0.0881208
0.913191 0.0264591 0.0894636
0 0.0845197 0.111772
0 0.0847181 0.107897
0 0.0848096 0.103838
0.0186465 0.0845808 0.099382
0.0445258 0.0845197 0.0956741
0.0692607 0.0844587 0.0963455
0.103578 0.0811322 0.101884
0.131136 0.0804456 0.101549
0.159655 0.0795148 0.101076
0.189548 0.0782025 0.100649
0.220951 0.0765087 0.0997787
0.253635 0.0744182 0.0986038
0.286641 0.0720073 0.0972305
0.319524 0.0693828 0.0960403
0.351385 0.0665599 0.0960861
0.38349 0.0637522 0.0969711
0.416312 0.0611276 0.0983749
0.45037 0.0585641 0.0999924
0.485435 0.0560616 0.101656
0.528023 0.0546273 0.0970016
0.576379 0.0541085 0.0872511
0.611582 0.0526436 0.0864576
0.643549 0.0515602 0.0859083
0.674891 0.0509346 0.0856031
0.70518 0.0507668 0.0856184
0.734432 0.0510719 0.085893
0.762707 0.0518502 0.0864576
0.790005 0.0530556 0.0872816
0.816587 0.0546273 0.0883192
0.842649 0.0565042 0.0895552
0.86836 0.0586099 0.0909133
0.893935 0.0608835 0.0923781
0.919539 0.0632181 0.0938888
0 0.109545 0.132616
0 0.109804 0.128756
0.00105287 0.109957 0.124712
0.0276036 0.109743 0.120134
0.0541695 0.109743 0.115679
0.0793317 0.110262 0.111528
0.101991 0.111925 0.104173
0.131624 0.111116 0.101457
0.160327 0.110384 0.101106
0.190433 0.1093 0.100587
0.222065 0.107836 0.100084
0.254963 0.106004 0.0990616
0.288182 0.103868 0.0978714
0.321675 0.101595 0.0965896
0.355749 0.0993057 0.0953078
0.390723 0.0971237 0.094255
0.425513 0.0950179 0.0943008
0.46096 0.0928511 0.0950637
0.497078 0.0906996 0.0962539
0.534951 0.0889754 0.0959945
0.579812 0.0886091 0.0888075
0.614801 0.0875868 0.0875868
0.646967 0.0869001 0.0869001
0.67982 0.085893 0.090074
0.70901 0.0868086 0.0868086
0.738567 0.0874189 0.0874189
0.767178 0.0884565 0.0884565
0.794888 0.0898909 0.0898909
0.821912 0.0916457 0.0916457
0.848341 0.0937209 0.0934768
0.874266 0.0960861 0.0950027
0.900023 0.0985885 0.0966049
0.925811 0.101152 0.0982376
0 0.13666 0.15227
0 0.13724 0.148241
0.00340276 0.137835 0.143847
0.0289158 0.138247 0.138582
0.0536812 0.139178 0.132799
0.0761273 0.141039 0.126101
0.0968643 0.143862 0.115816
0.130251 0.143481 0.101015
0.160647 0.142596 0.100847
0.191012 0.141802 0.100511
0.222904 0.140642 0.100191
0.256077 0.139101 0.0993668
0.289525 0.13727 0.0983597
0.323262 0.135302 0.0972763
0.357626 0.133333 0.0961776
0.393133 0.131487 0.0951705
0.429572 0.129885 0.094316
0.467247 0.128313 0.0935683
0.505226 0.12668 0.0936141
0.54316 0.125124 0.0941482
0.58349 0.1243 0.0919203
0.61883 0.123583 0.0910658
0.651469 0.12314 0.0909133
0.683299 0.123156 0.0910353
0.714061 0.123644 0.0914321
0.743801 0.124575 0.0920882
0.772503 0.125948 0.0930037
0.800244 0.127733 0.0941939
0.827237 0.129839 0.0955673
0.853666 0.132204 0.0970932
0.879744 0.134768 0.0987411
0.905638 0.137438 0.10045
0.931563 0.140154 0.102205
0 0.165927 0.170397
0 0.167041 0.165835
0.00129702 0.168276 0.160693
0.0256352 0.169451 0.15433
0.0490272 0.171283 0.147082
0.0704662 0.173968 0.138781
0.0911727 0.177279 0.127749
0.118227 0.179568 0.109133
0.159197 0.176822 0.100206
0.191257 0.175891 0.10045
0.223438 0.175036 0.100069
0.25687 0.1738 0.0994278
0.290562 0.17229 0.0986191
0.324559 0.170626 0.0977035
0.359197 0.168963 0.0968185
0.395056 0.167437 0.0959945
0.431815 0.166155 0.0953384
0.469947 0.16492 0.0947127
0.509209 0.16376 0.0941329
0.548852 0.162737 0.0936904
0.587289 0.161929 0.093431
0.62208 0.16144 0.09308
0.655024 0.161303 0.0931106
0.687053 0.161593 0.0933852
0.717998 0.162325 0.0939345
0.74789 0.163485 0.0947433
0.776761 0.165057 0.0957961
0.804623 0.167041 0.0970779
0.831754 0.169314 0.0985733
0.858305 0.171847 0.100206
0.884474 0.174533 0.10193
0.91046 0.177325 0.103365
0.936461 0.180133 0.105165
0 0.197375 0.187472
0 0.1991 0.18233
0 0.200992 0.176455
0.0201724 0.202884 0.169116
0.0428931 0.205417 0.160861
0.0641031 0.208667 0.151751
0.0849928 0.212345 0.140566
0.109117 0.215747 0.123629
0.147417 0.215259 0.104112
0.189578 0.212177 0.0997024
0.223636 0.211139 0.0996872
0.257343 0.210224 0.0992447
0.291279 0.209018 0.0986191
0.325551 0.207675 0.0979171
0.360464 0.206332 0.0972152
0.396658 0.205142 0.0966049
0.433753 0.204181 0.0961318
0.472206 0.20325 0.0957046
0.511803 0.202396 0.0953078
0.551736 0.201648 0.0949874
0.590417 0.201114 0.094789
0.624903 0.200839 0.0947433
0.658061 0.200916 0.0948959
0.690227 0.201404 0.0952926
0.721309 0.202335 0.095964
0.751324 0.203662 0.0968643
0.780285 0.205402 0.0980087
0.808255 0.207492 0.0993973
0.835447 0.209888 0.100938
0.862058 0.212512 0.102327
0.888289 0.215274 0.104051
0.914321 0.218097 0.105882
0.940337 0.220935 0.107683
0 0.230579 0.203372
0 0.232898 0.197681
0 0.235416 0.191135
0.0137026 0.237964 0.182925
0.0357824 0.241016 0.174136
0.0570077 0.244694 0.164599
0.0781415 0.248707 0.153353
0.101442 0.252644 0.137636
0.133562 0.254582 0.116411
0.178988 0.252033 0.101152
0.221775 0.249058 0.0987869
0.257481 0.247929 0.0988022
0.291707 0.247059 0.0983749
0.326238 0.246052 0.0978714
0.361425 0.245029 0.0973678
0.397894 0.244144 0.0969253
0.435279 0.243458 0.0966354
0.473976 0.242802 0.0963455
0.513832 0.242176 0.0961013
0.553948 0.241657 0.0959029
0.592691 0.241321 0.0958267
0.6271 0.24123 0.0958877
0.660395 0.241459 0.0961471
0.692668 0.242084 0.0966354
0.723827 0.243107 0.0973678
0.753902 0.244526 0.0983444
0.78291 0.246311 0.0995499
0.810925 0.248447 0.100969
0.838132 0.250858 0.102205
0.864759 0.253452 0.103899
0.89099 0.256168 0.105669
0.917006 0.258946 0.107485
0.943008 0.261707 0.1093
0 0.265309 0.218677
0 0.268177 0.212512
0 0.271229 0.205447
0.00624094 0.274296 0.196689
0.0282597 0.277806 0.187503
0.0496376 0.28188 0.177752
0.0710155 0.286229 0.166537
0.0940566 0.290547 0.151644
0.122774 0.293797 0.131548
0.16379 0.293614 0.110018
0.212467 0.290135 0.0992905
0.255695 0.287312 0.0979782
0.291981 0.286152 0.0980392
0.326726 0.285405 0.0976883
0.362127 0.284627 0.097322
0.39881 0.28397 0.0970321
0.436393 0.283497 0.096849
0.475303 0.283024 0.0966812
0.515328 0.282551 0.0965438
0.555581 0.282185 0.096437
0.594369 0.281987 0.096437
0.628702 0.282017 0.0965744
0.662074 0.282338 0.0968795
0.694392 0.283024 0.0974289
0.725582 0.284108 0.0982071
0.755673 0.285542 0.0991989
0.78468 0.287327 0.10042
0.812665 0.289448 0.101839
0.839872 0.291814 0.103059
0.866453 0.294347 0.104753
0.892638 0.296986 0.106493
0.918578 0.299672 0.108248
0.944503 0.302312 0.109987
0 0.301274 0.233707
0 0.304631 0.227161
0 0.308171 0.219715
0 0.311696 0.210559
0.020798 0.315618 0.201144
0.0423438 0.320043 0.191318
0.0639811 0.324697 0.180163
0.0869917 0.329366 0.16585
0.114061 0.333349 0.147005
0.150195 0.335088 0.124208
0.198138 0.332982 0.105333
0.247684 0.329168 0.0980545
0.290288 0.326497 0.097322
0.327169 0.325322 0.0974441
0.362722 0.324742 0.0972
0.399573 0.324239 0.0970016
0.437293 0.323903 0.0969253
0.476341 0.323552 0.0968338
0.516487 0.323201 0.0967422
0.556802 0.322927 0.0966964
0.59559 0.322789 0.0967422
0.629862 0.322866 0.09691
0.663249 0.323217 0.0972457
0.695552 0.323919 0.0977951
0.726726 0.324971 0.0985733
0.756771 0.326375 0.0995651
0.785733 0.328115 0.100755
0.813672 0.330144 0.101946
0.840787 0.332403 0.103319
0.867292 0.334798 0.104936
0.893385 0.337301 0.106615
0.919295 0.339895 0.108354
0.945235 0.342504 0.110109
0 0.33814 0.248661
0 0.341939 0.24181
0 0.345892 0.234089
0 0.349828 0.224659
0.0137789 0.354116 0.215122
0.035523 0.358831 0.205264
0.0573739 0.363729 0.194141
0.080415 0.368643 0.18024
0.1066 0.373053 0.162371
0.139498 0.375967 0.140078
0.183413 0.375708 0.116991
0.235019 0.372274 0.102113
0.283421 0.36849 0.0972915
0.325628 0.365972 0.0968948
0.363363 0.364843 0.0971084
0.40032 0.364446 0.0969863
0.438148 0.364187 0.0969558
0.477256 0.363897 0.0968948
0.517464 0.363607 0.0968338
0.557778 0.363348 0.0968032
0.596521 0.363226 0.096849
0.630716 0.363287 0.0970169
0.664073 0.363607 0.0973373
0.696315 0.364263 0.0978561
0.727413 0.36524 0.0985885
0.757382 0.366537 0.0995193
0.786236 0.368139 0.100664
0.814084 0.370047 0.101869
0.841169 0.372244 0.103166
0.867689 0.37464 0.104799
0.893843 0.377188 0.106523
0.919829 0.379797 0.108324
0.94583 0.382437 0.110124
0 0.375097 0.263478
0 0.379187 0.256382
0 0.383413 0.248386
0 0.38761 0.238743
0.00758373 0.392081 0.229068
0.0294957 0.396918 0.219165
0.0515297 0.401907 0.207996
0.0746471 0.406882 0.194339
0.100359 0.41149 0.177127
0.131334 0.415015 0.155596
0.171405 0.416144 0.131258
0.221347 0.413916 0.110643
0.273014 0.409857 0.0999924
0.32015 0.406256 0.0968795
0.362264 0.403967 0.096788
0.401205 0.403006 0.0970626
0.439078 0.402792 0.0970474
0.478218 0.402518 0.0969863
0.518441 0.402213 0.0969253
0.558694 0.401953 0.0968643
0.597345 0.401785 0.0968795
0.631403 0.401785 0.0969863
0.664668 0.401999 0.097261
0.696803 0.402502 0.0977188
0.72784 0.403357 0.0984207
0.757778 0.404562 0.0993668
0.786679 0.406119 0.100526
0.814572 0.40798 0.101793
0.841718 0.410101 0.103136
0.868284 0.412406 0.104814
0.894484 0.414847 0.106584
0.920501 0.417334 0.1084
0.946517 0.419837 0.110216
0 0.41088 0.277836
0 0.415259 0.270542
0 0.419745 0.262364
0 0.42417 0.252537
0.00242618 0.42884 0.242802
0.0244602 0.433829 0.232837
0.0466163 0.438956 0.221653
0.0697795 0.444038 0.208179
0.0951858 0.448798 0.191455
0.124941 0.452705 0.170626
0.162112 0.454795 0.146273
0.209003 0.453834 0.122408
0.261173 0.450233 0.106126
0.311818 0.446021 0.0987564
0.35816 0.442664 0.0968185
0.400793 0.440604 0.0970016
0.440238 0.439857 0.0972915
0.479347 0.439521 0.0972
0.519493 0.439155 0.0970779
0.559655 0.438804 0.0969711
0.598154 0.438544 0.0969253
0.63212 0.438499 0.0970016
0.665385 0.438727 0.0972915
0.697566 0.439307 0.0977951
0.728649 0.440238 0.098558
0.758633 0.44152 0.0995346
0.787564 0.443122 0.10074
0.815503 0.445029 0.101823
0.842664 0.447181 0.10341
0.869261 0.449485 0.105119
0.89546 0.451926 0.106905
0.921492 0.454398 0.108736
0.947509 0.456886 0.110552
0 0.447211 0.292332
0 0.451804 0.284855
0 0.456474 0.276478
0 0.461036 0.266484
0 0.465827 0.256657
0.0195926 0.470909 0.246632
0.041825 0.476097 0.235386
0.0650034 0.481224 0.222034
0.0901808 0.486061 0.205661
0.119036 0.490196 0.185443
0.154101 0.492866 0.161379
0.197696 0.493019 0.136034
0.24828 0.490288 0.115282
0.300771 0.485985 0.102937
0.350713 0.481804 0.0977798
0.397147 0.47866 0.0966354
0.43975 0.476844 0.0969711
0.480018 0.476036 0.0971237
0.52018 0.475654 0.0969711
0.560357 0.475334 0.0968948
0.598886 0.475151 0.0968948
0.632868 0.475181 0.0970321
0.666163 0.475486 0.0973526
0.698375 0.476127 0.0979171
0.729488 0.477089 0.0987106
0.759487 0.478401 0.0997024
0.788434 0.480018 0.100954
0.816373 0.481941 0.102037
0.843534 0.484077 0.103639
0.870115 0.486397 0.105333
0.8963 0.488807 0.107118
0.922301 0.491279 0.108919
0.948302 0.493721 0.110719
0 0.48397 0.306889
0 0.488716 0.299214
0 0.493507 0.290669
0 0.498177 0.280491
0 0.503044 0.270573
0.0146639 0.508156 0.260441
0.0369268 0.513359 0.249149
0.0600595 0.518486 0.235859
0.0850233 0.523339 0.219745
0.113191 0.527565 0.200015
0.146593 0.530632 0.176425
0.187289 0.531609 0.15053
0.235294 0.529839 0.126741
0.287831 0.525872 0.109575
0.340246 0.521294 0.100298
0.39028 0.517327 0.0967575
0.436408 0.514626 0.0962997
0.479713 0.512993 0.0967269
0.520851 0.512383 0.0968795
0.56109 0.512123 0.0968338
0.599603 0.512001 0.0968795
0.63357 0.512078 0.0970474
0.66688 0.512413 0.0973831
0.699107 0.513069 0.0979629
0.730205 0.514061 0.0987564
0.760204 0.515358 0.0997787
0.78912 0.516976 0.101015
0.817029 0.518883 0.102098
0.844144 0.520989 0.10367
0.870695 0.523247 0.105348
0.896849 0.525612 0.107103
0.922789 0.527993 0.108858
0.94873 0.530358 0.110613
0 0.520897 0.321447
0 0.525734 0.313558
0 0.530587 0.304845
0 0.535286 0.294484
0 0.540154 0.284459
0.00973526 0.545266 0.27422
0.0319829 0.550423 0.262806
0.0550546 0.555505 0.249546
0.0797894 0.560311 0.233616
0.107378 0.564553 0.214267
0.139483 0.567834 0.19115
0.177844 0.569436 0.165286
0.223178 0.568658 0.139757
0.274418 0.565545 0.118853
0.328176 0.56112 0.105226
0.381186 0.556695 0.0984207
0.430777 0.553201 0.0962539
0.477287 0.550744 0.0962234
0.521096 0.549355 0.0967117
0.561929 0.548943 0.096849
0.600397 0.548837 0.09691
0.634333 0.548928 0.0970932
0.667628 0.549264 0.0974289
0.69984 0.54992 0.0980087
0.730892 0.550881 0.0987869
0.760845 0.552178 0.099794
0.789715 0.55375 0.100999
0.817563 0.555627 0.102052
0.844617 0.557687 0.103578
0.871092 0.559899 0.105211
0.897169 0.562188 0.10692
0.923033 0.564508 0.108614
0.948867 0.566812 0.110292
0 0.558038 0.336049
0 0.562936 0.327977
0 0.567803 0.319066
0 0.572503 0.308522
0 0.577356 0.298344
0.00480659 0.582406 0.287968
0.026978 0.587503 0.276463
0.0499733 0.592523 0.263188
0.0745708 0.597345 0.247456
0.101793 0.60174 0.228504
0.133028 0.605325 0.205951
0.169696 0.607507 0.180331
0.212482 0.607614 0.154131
0.261723 0.605447 0.130541
0.31548 0.60148 0.112825
0.370474 0.596902 0.10222
0.423117 0.592813 0.0974746
0.472862 0.589548 0.0961776
0.51957 0.58732 0.0964218
0.562631 0.586191 0.0969253
0.601373 0.585946 0.0970779
0.635233 0.586023 0.0972457
0.668482 0.586343 0.0975662
0.700633 0.586954 0.0981003
0.731624 0.5879 0.0988632
0.761501 0.589151 0.0998093
0.79028 0.590692 0.100969
0.818051 0.592508 0.101976
0.845014 0.594537 0.103441
0.871382 0.596689 0.105013
0.897353 0.598932 0.106615
0.92311 0.601175 0.108248
0.948821 0.603403 0.109819
0 0.595728 0.350881
0 0.600641 0.342596
0 0.605493 0.333471
0 0.610132 0.322728
0 0.614984 0.312474
1.5259e-05 0.620096 0.301991
0.0222477 0.625299 0.290486
0.0452735 0.630442 0.277333
0.0698253 0.635401 0.261799
0.0968032 0.639918 0.243229
0.127367 0.643748 0.221164
0.162615 0.646357 0.195972
0.203174 0.647196 0.169574
0.250156 0.645884 0.144183
0.302754 0.642618 0.12311
0.358862 0.638132 0.108431
0.413809 0.633677 0.100496
0.466575 0.629694 0.0971389
0.516274 0.626642 0.0964523
0.561837 0.624704 0.0968643
0.602319 0.623819 0.0973526
0.636362 0.623743 0.0975662
0.669551 0.624002 0.0978561
0.701595 0.624567 0.0983444
0.732509 0.625452 0.0990311
0.76228 0.626642 0.0999313
0.790951 0.628122 0.101015
0.818586 0.629877 0.10193
0.845426 0.631815 0.103319
0.871687 0.63386 0.104799
0.897505 0.635996 0.10631
0.92311 0.638117 0.10782
0.948684 0.640177 0.109285
0 0.633616 0.365805
0 0.638514 0.357321
0 0.643412 0.348074
0 0.648142 0.337255
0 0.653071 0.326986
0 0.658274 0.316457
0.0182803 0.663523 0.304936
0.0413519 0.668727 0.291814
0.0658732 0.673701 0.276432
0.0926375 0.678309 0.258137
0.122667 0.682277 0.236454
0.156771 0.685161 0.211734
0.195453 0.686519 0.185443
0.240223 0.685985 0.15903
0.291157 0.683452 0.135393
0.347097 0.679362 0.117082
0.403662 0.674739 0.105577
0.459007 0.670207 0.0995651
0.511513 0.666407 0.097322
0.559609 0.663676 0.0971084
0.602029 0.662058 0.0975814
0.637476 0.661402 0.0980392
0.670909 0.661448 0.0983597
0.702831 0.661906 0.0987716
0.733623 0.662669 0.0993973
0.763256 0.663722 0.100206
0.791791 0.665064 0.101198
0.819272 0.666651 0.102007
0.845975 0.668421 0.103304
0.872053 0.670314 0.104646
0.897719 0.672251 0.106035
0.92314 0.674174 0.107424
0.948547 0.676036 0.108751
0 0.671214 0.380835
0 0.676204 0.37229
0 0.681193 0.362936
0 0.685939 0.352224
0 0.69099 0.341741
0 0.696223 0.331136
0.0153048 0.701503 0.31957
0.0383917 0.706706 0.306477
0.0628672 0.711711 0.291188
0.0893873 0.71635 0.272862
0.118975 0.720409 0.251286
0.152148 0.723476 0.226963
0.189456 0.725185 0.200748
0.232181 0.725216 0.173953
0.281285 0.723354 0.148913
0.336339 0.719768 0.127626
0.39379 0.715175 0.112612
0.450874 0.710323 0.103685
0.505867 0.705867 0.099382
0.556298 0.702403 0.0980392
0.600549 0.700053 0.098085
0.637568 0.698756 0.0985428
0.672267 0.698222 0.0990616
0.704433 0.698421 0.0994888
0.735058 0.699031 0.100008
0.764538 0.699931 0.10071
0.792889 0.701091 0.101244
0.820218 0.702495 0.102281
0.846708 0.704082 0.103426
0.872587 0.705745 0.104631
0.898054 0.707469 0.105867
0.923278 0.709163 0.107103
0.94847 0.710796 0.108278
0 0.708659 0.396155
0 0.71371 0.387503
0 0.718746 0.378042
0 0.723522 0.367254
0 0.728588 0.356695
0 0.733837 0.346014
0.0133669 0.739116 0.334371
0.0363165 0.74435 0.320882
0.0607309 0.74931 0.305608
0.0871901 0.753918 0.287617
0.116442 0.757977 0.266484
0.148806 0.761135 0.242542
0.184878 0.763073 0.216571
0.225895 0.763531 0.189563
0.273274 0.762234 0.162905
0.327108 0.759152 0.139193
0.384497 0.754772 0.121096
0.442863 0.749706 0.109102
0.499825 0.744747 0.102434
0.552316 0.740597 0.0997024
0.598154 0.737575 0.0991836
0.636728 0.735637 0.099321
0.672755 0.734478 0.0998245
0.70602 0.734096 0.100389
0.736858 0.734386 0.100893
0.766155 0.735073 0.101122
0.794293 0.736034 0.101854
0.821408 0.737224 0.102754
0.847684 0.738567 0.103746
0.87335 0.740032 0.104799
0.898619 0.741527 0.105882
0.923659 0.742992 0.106966
0.948638 0.744396 0.107988
0 0.745815 0.411658
0 0.750912 0.402899
0 0.755947 0.393332
0 0.760723 0.382437
0 0.765789 0.371786
0 0.771038 0.360616
0.012253 0.776272 0.348882
0.0352941 0.781415 0.335698
0.0596475 0.786313 0.320439
0.0859388 0.79086 0.302525
0.11487 0.794873 0.281559
0.146532 0.798047 0.257939
0.181537 0.800122 0.232227
0.221134 0.800885 0.205142
0.266911 0.800015 0.17763
0.319387 0.797391 0.152041
0.376135 0.793301 0.131304
0.43534 0.788113 0.116289
0.493584 0.782818 0.107103
0.547799 0.778088 0.102449
0.594949 0.774426 0.100633
0.63505 0.771832 0.100206
0.672404 0.770031 0.10042
0.706737 0.769055 0.100938
0.738476 0.768765 0.101534
0.768002 0.769085 0.102068
0.795941 0.769818 0.102663
0.822828 0.770779 0.103395
0.848905 0.771908 0.104234
0.874372 0.773144 0.10515
0.899428 0.774411 0.106081
0.924269 0.775677 0.107012
0.949065 0.776852 0.107881
0 0.782605 0.427314
0 0.787732 0.418067
0 0.792737 0.408362
0 0.797467 0.39733
0 0.802487 0.386572
0 0.807645 0.375631
0.0121157 0.812802 0.363775
0.0350958 0.817838 0.3505
0.0593576 0.822644 0.33521
0.0855116 0.8271 0.317296
0.114107 0.831037 0.296483
0.145129 0.83415 0.273121
0.179232 0.836286 0.247623
0.217716 0.837201 0.220417
0.262058 0.836667 0.192386
0.313039 0.83444 0.165438
0.368917 0.830625 0.142428
0.428183 0.825483 0.124697
0.487404 0.819883 0.112932
0.542916 0.814649 0.106279
0.591043 0.810407 0.103136
0.632624 0.807172 0.1019
0.671229 0.804746 0.10164
0.70663 0.803159 0.10193
0.739269 0.802319 0.102449
0.769558 0.802106 0.103044
0.797772 0.802472 0.103624
0.82446 0.803204 0.104204
0.85034 0.80412 0.104906
0.875593 0.805127 0.105669
0.90045 0.80618 0.106462
0.925093 0.807218 0.10724
0.949706 0.808179 0.107958
0 0.818952 0.442649
0 0.823972 0.4336
0 0.828931 0.423758
0 0.833585 0.412589
0 0.838514 0.401663
0 0.84358 0.39057
0.0127108 0.848615 0.378607
0.0356146 0.853529 0.365209
0.0597696 0.858213 0.349844
