LUTS/08_VSCO LUTs_Green Haze.cube
TITLE "Generated by Resolve"
LUT_3D_SIZE 9
0 0.0259861 0.0569467
0.0271153 0.0266117 0.0575723
0.12462 0.0224308 0.0534066
0.263523 0.00674449 0.0377661
0.427558 0 0.017792
0.619028 0 0
0.805615 0 0
0.96286 0 0
1 0 0
0 0.114 0.0437171
0.0141756 0.115465 0.04477
0.113008 0.112093 0.0418097
0.254505 0.0989548 0.0287327
0.423133 0.0827955 0.0126345
0.623453 0.0665751 0
0.818311 0.0567788 0
0.984863 0.0555886 0
1 0.05832 0
0 0.215503 0.0173037
0 0.221408 0.0231632
0.0966506 0.223682 0.0254368
0.244709 0.217105 0.0188754
0.422171 0.207996 0.00979629
0.634684 0.198779 0.000595102
0.838376 0.195529 0
1 0.199634 0.000808728
1 0.205844 0.00704967
0 0.351827 0
0 0.365225 0
0.0673838 0.374838 0
0.221424 0.374563 0
0.40415 0.370199 0
0.62118 0.363821 0
0.826185 0.36173 0
0.999344 0.365911 0
1 0.37261 0
0 0.520378 0
0 0.538552 0
0.0429236 0.550744 0
0.197253 0.550851 0
0.379553 0.546059 0
0.596353 0.539574 0
0.801846 0.538003 0
0.975814 0.543023 0
1 0.549325 0
0 0.693462 0
0 0.710903 0
0.0221256 0.722881 0
0.177188 0.723583 0
0.36025 0.719066 0
0.576638 0.711666 0
0.779522 0.707988 0
0.949416 0.709636 0
1 0.711452 0
0 0.854643 0
0 0.871962 0
0.026215 0.882643 0
0.180026 0.880858 0
0.361929 0.872648 0
0.575616 0.860471 0
0.77145 0.851377 0
0.933806 0.847257 0
1 0.843351 0
0 0.999802 0
0 1 0
0.0444343 1 0
0.194995 1 0
0.3738 0.997009 0
0.583993 0.979049 0
0.772763 0.964538 0
0.928618 0.955444 0
1 0.947204 0
0 1 0
0 1 0
0.0534829 1 0
0.200198 1 0
0.375463 1 0
0.582177 1 0
0.766751 1 0
0.919493 1 0
1 1 0
0 0.0234684 0.164996
0.0247196 0.0244297 0.166278
0.12221 0.0199893 0.161532
0.261143 0.00436408 0.145937
0.425345 0 0.126131
0.617121 0 0.105196
0.804318 0 0.0896925
0.962402 0 0.0822309
1 0 0.0784772
0 0.111681 0.151949
0.0121004 0.11339 0.153643
0.111299 0.110384 0.150668
0.2533 0.0977493 0.138064
0.422736 0.0822461 0.122606
0.624262 0.0667124 0.107103
0.820081 0.0576486 0.0980545
0.987671 0.0572213 0.0975814
1 0.0605936 0.100908
0 0.214542 0.126879
0 0.221118 0.133425
0.0970016 0.224109 0.1364
0.245899 0.21828 0.130587
0.424628 0.209903 0.12224
0.638621 0.201236 0.113573
0.842832 0.198352 0.110674
1 0.20264 0.114946
1 0.208865 0.121172
0 0.353353 0.0856336
0 0.367498 0.0993668
0.0699016 0.37763 0.109148
0.22443 0.377691 0.109102
0.40795 0.373434 0.104845
0.625834 0.366964 0.0983597
0.830488 0.36463 0.0957809
1 0.369009 0.0995651
1 0.375937 0.105562
0 0.52372 0.056611
0 0.541939 0.0736858
0.045716 0.553979 0.0849622
0.200092 0.553918 0.0847639
0.38323 0.54931 0.0801709
0.601068 0.54287 0.0737011
0.806531 0.541283 0.0717021
0.980285 0.54612 0.075761
1 0.552163 0.0809644
0 0.696544 0.0359808
0 0.714153 0.0528878
0.0250706 0.726177 0.0643931
0.18027 0.726802 0.0648966
0.363775 0.722072 0.0601816
0.580636 0.714336 0.0524758
0.782986 0.710246 0.0482185
0.952163 0.711345 0.0489052
1 0.712551 0.0496834
0 0.857816 0.0422675
0 0.874876 0.0586557
0.0284733 0.885222 0.0685435
0.182086 0.882963 0.0662699
0.363821 0.874144 0.0576333
0.57731 0.861357 0.0450752
0.772381 0.851682 0.0354467
0.934005 0.846998 0.0306096
1 0.842573 0.0259709
0 1 0.0690166
0 1 0.0811627
0.0450294 1 0.0859693
0.195163 1 0.0780804
0.373526 0.996551 0.0637522
0.583246 0.978058 0.045716
0.771389 0.963088 0.0310216
0.926787 0.953628 0.0215763
1 0.945113 0.0130312
0 1 0.0873426
0 1 0.0939345
0.0522927 1 0.0933852
0.198611 1 0.0804456
0.37351 1 0.0616617
0.579873 1 0.0399329
0.764233 1 0.022446
0.916838 1 0.010956
1 1 0.00111391
0 0.0192874 0.297169
0.0204318 0.0203861 0.298268
0.117937 0.0156405 0.293553
0.256901 0.000122072 0.278126
0.42121 0 0.258549
0.612955 0 0.237995
0.800855 0 0.222995
0.959808 0 0.21619
1 0 0.213123
0 0.107515 0.284138
0.00827039 0.109499 0.286107
0.107866 0.10692 0.283543
0.250401 0.0948501 0.27158
0.420493 0.0800336 0.256809
0.622965 0.0652018 0.242008
0.819791 0.0568704 0.233692
0.988388 0.0571908 0.233967
1 0.0611276 0.237827
0 0.211872 0.260609
0 0.21915 0.267826
0.0957351 0.222873 0.271504
0.245441 0.217792 0.266453
0.425193 0.210132 0.258808
0.64033 0.201953 0.250645
0.844968 0.19939 0.248035
1 0.203784 0.252384
1 0.209979 0.258717
0 0.353201 0.221851
0 0.368002 0.236194
0.0706798 0.378607 0.246357
0.225589 0.378927 0.246555
0.409628 0.374716 0.242344
0.62797 0.368093 0.235691
0.83241 0.365606 0.232929
1 0.370214 0.236942
1 0.377295 0.243229
0 0.525093 0.194186
0 0.543282 0.211246
0.0465858 0.555123 0.222278
0.201099 0.555077 0.22208
0.384848 0.550622 0.217624
0.603387 0.544213 0.21117
0.808743 0.542535 0.209079
0.982269 0.547189 0.212985
1 0.552926 0.218112
0 0.697734 0.173449
0 0.71545 0.190448
0.0261387 0.727474 0.201907
0.181369 0.727993 0.202274
0.365057 0.723018 0.19733
0.582071 0.714931 0.189288
0.78381 0.710384 0.184558
0.952239 0.710903 0.18471
1 0.711513 0.184985
0 0.858946 0.179614
0 0.875746 0.195697
0.028748 0.885695 0.20528
0.18204 0.882933 0.202518
0.363348 0.873503 0.19324
0.576318 0.860105 0.180087
0.770642 0.849851 0.169909
0.931548 0.844633 0.164538
1 0.839658 0.159411
0 1 0.205264
0 1 0.216983
0.043534 1 0.221302
0.193133 1 0.212772
0.370886 0.993973 0.197772
0.579858 0.97496 0.179049
0.767452 0.959579 0.163867
0.922408 0.949783 0.154116
1 0.941009 0.145327
0 1 0.22211
0 1 0.228275
0.0490578 1 0.227237
0.194888 1 0.213764
0.369253 1 0.194491
0.575067 1 0.17232
0.759228 1 0.154543
0.911757 1 0.142977
1 1 0.133135
0 0.0114443 0.475685
0.0126345 0.0124361 0.476722
0.11017 0.00772107 0.471839
0.249149 0 0.456016
0.413458 0 0.436255
0.60441 0 0.415793
0.793133 0 0.401221
0.953017 0 0.395148
1 0 0.392935
0 0.0998093 0.462791
0.00105287 0.102129 0.465202
0.101091 0.100008 0.46302
0.244129 0.0885786 0.451255
0.414633 0.0744793 0.436805
0.617456 0.0603799 0.422507
0.815305 0.0528115 0.414954
0.984848 0.0538186 0.416266
1 0.0582742 0.421241
0 0.205859 0.440604
0 0.213825 0.44889
0.0912032 0.21828 0.453574
0.241596 0.213977 0.449195
0.421988 0.206958 0.442054
0.637675 0.199222 0.434287
0.842649 0.196902 0.432273
1 0.201358 0.437568
1 0.207416 0.444724
0 0.349645 0.403754
0 0.365011 0.419226
0.0680552 0.376013 0.430335
0.223163 0.376516 0.430884
0.407263 0.372305 0.426673
0.625452 0.365484 0.419852
0.829892 0.362997 0.417426
1 0.367758 0.422507
1 0.374868 0.42974
0 0.522744 0.377157
0 0.540856 0.394781
0.0438544 0.552407 0.406149
0.19855 0.55256 0.406271
0.382483 0.548226 0.401938
0.601129 0.541817 0.395514
0.806348 0.540032 0.393713
0.979583 0.544442 0.398291
1 0.549813 0.403876
0 0.695277 0.356435
0 0.713069 0.374182
0.023682 0.725063 0.386252
0.17879 0.725414 0.386633
0.362234 0.72018 0.381384
0.578759 0.711711 0.3729
0.779858 0.706661 0.367895
0.947494 0.706584 0.368063
1 0.706584 0.368338
0 0.856291 0.3635
0 0.87277 0.380255
0.0253758 0.882292 0.390066
0.178088 0.878981 0.38674
0.358602 0.86894 0.376547
0.57052 0.854978 0.362371
0.764111 0.844175 0.351507
0.924315 0.838392 0.345815
1 0.832898 0.340429
0 0.997269 0.390005
0 1 0.401724
0.0382391 1 0.405722
0.187091 1 0.396307
0.363928 0.987503 0.380179
0.571694 0.968032 0.360327
0.758785 0.952255 0.34435
0.913344 0.942153 0.334218
1 0.93315 0.325216
0 1 0.406455
0 1 0.412406
0.0420691 1 0.41088
0.187243 1 0.396445
0.360754 1 0.376089
0.565621 1 0.352911
0.74963 1 0.334478
0.902098 1 0.322698
1 1 0.312856
0 0.0030518 0.665797
0.00434882 0.0039826 0.666758
0.101946 0 0.661952
0.24097 0 0.646235
0.405371 0 0.626505
0.595514 0 0.606104
0.785122 0 0.591913
0.945922 0 0.586679
1 0 0.585519
0 0.091722 0.653223
0 0.0944076 0.656001
0.0940261 0.0927901 0.654353
0.237583 0.0820478 0.643275
0.408545 0.0686503 0.629465
0.611688 0.0552987 0.615808
0.810559 0.0484932 0.609079
0.980972 0.0501411 0.611231
1 0.0550393 0.616709
0 0.199557 0.632898
0 0.208255 0.641932
0.0864424 0.213458 0.647349
0.237522 0.209903 0.643763
0.418433 0.203464 0.637247
0.634546 0.196109 0.629877
0.839796 0.193988 0.628
1 0.198444 0.632959
1 0.204318 0.639338
0 0.345785 0.598444
0 0.361669 0.614603
0.0650339 0.372992 0.625986
0.220264 0.373632 0.626627
0.404318 0.36936 0.622354
0.622202 0.36228 0.615274
0.826871 0.35996 0.61294
1 0.364858 0.61767
1 0.372 0.624277
0 0.51986 0.572808
0 0.53782 0.590463
0.0406806 0.549233 0.601648
0.195575 0.549584 0.601938
0.379614 0.545342 0.597696
0.598276 0.538903 0.591226
0.803296 0.536965 0.589166
0.976196 0.541131 0.593027
1 0.546136 0.597681
0 0.692348 0.552087
0 0.710185 0.570016
0.0207218 0.722103 0.581933
0.175631 0.722271 0.582086
0.35874 0.716731 0.576547
0.574655 0.707851 0.567666
0.775051 0.702266 0.562081
0.941909 0.701579 0.561364
1 0.700999 0.560708
0 0.85304 0.558923
0 0.869169 0.57499
0.0213931 0.878233 0.583993
0.173465 0.874327 0.580102
0.353109 0.863706 0.569528
0.563897 0.84918 0.555032
0.756756 0.837812 0.543679
0.916259 0.831495 0.537362
1 0.825498 0.531334
0 0.992416 0.58262
0 1 0.593301
0.0323796 1 0.596536
0.180407 0.996735 0.586847
0.356283 0.980407 0.570657
0.562783 0.960479 0.550835
0.749416 0.94435 0.534752
0.903609 0.933974 0.524392
1 0.924758 0.515175
0 1 0.595972
0 1 0.601053
0.0345769 1 0.599176
0.179049 1 0.585016
0.351705 1 0.565057
0.55555 1 0.542351
0.739422 1 0.524178
0.891875 1 0.512474
1 1 0.502708
0 0 0.839933
0 0 0.840864
0.0945754 0 0.836316
0.233692 0 0.821424
0.39826 0 0.802853
0.587854 0 0.78378
0.778363 0 0.770611
0.940093 0 0.765835
1 0 0.764904
0 0.0845502 0.827817
0 0.0876631 0.830915
0.087953 0.0866255 0.829877
0.23209 0.0765545 0.819837
0.403586 0.063859 0.807187
0.607248 0.0512703 0.794614
0.807126 0.0452125 0.78854
0.978317 0.0474403 0.790738
1 0.0527352 0.795972
0 0.194324 0.809628
0 0.203738 0.819013
0.0827192 0.20972 0.824964
0.234485 0.206867 0.822126
0.415946 0.200931 0.81619
0.632547 0.193881 0.809155
0.83798 0.191913 0.807157
1 0.196307 0.811582
1 0.201953 0.817212
0 0.342931 0.778119
0 0.359289 0.794018
0.0628672 0.370886 0.805173
0.218189 0.371588 0.805753
0.402213 0.367163 0.801343
0.620005 0.359915 0.79411
0.824948 0.357824 0.791745
0.999084 0.362829 0.796109
1 0.369955 0.802213
0 0.517784 0.753277
0 0.535546 0.769955
0.0383764 0.54699 0.780682
0.193454 0.547509 0.781033
0.377661 0.543297 0.776822
0.596353 0.536782 0.77026
0.801144 0.534676 0.767803
0.973663 0.538537 0.770947
1 0.543114 0.774792
0 0.690272 0.732433
0 0.708125 0.749599
0.0185092 0.719936 0.760922
0.173236 0.719875 0.760754
0.355993 0.713985 0.754925
0.571344 0.704646 0.745678
0.770993 0.698482 0.739437
0.937057 0.697215 0.73785
1 0.696056 0.73637
0 0.850538 0.737774
0 0.866285 0.752911
0.0180362 0.874846 0.761105
0.169482 0.870329 0.75668
0.348302 0.859113 0.745724
0.558022 0.844022 0.730938
0.750164 0.832105 0.719158
0.908965 0.825254 0.712245
1 0.818784 0.705669
0 0.988205 0.758587
0 0.998413 0.768399
0.0271458 1 0.770977
0.174441 0.990799 0.760952
0.349371 0.973968 0.74461
0.554711 0.953643 0.724804
0.740902 0.937163 0.708644
0.894774 0.926543 0.698085
1 0.917159 0.688716
0 1 0.769421
0 1 0.773983
0.0277714 1 0.77174
0.171603 1 0.757504
0.343542 1 0.737774
0.546426 1 0.715404
0.73022 1 0.697475
0.882673 1 0.685893
1 1 0.676234
0 0 0.976608
0 0 0.977554
0.0901045 0 0.973159
0.22945 0 0.958572
0.394339 0 0.940398
0.584222 0 0.921904
0.775647 0 0.909392
0.938323 0 0.905333
1 0 0.905135
0 0.0804303 0.965087
0 0.0839857 0.968643
0.084947 0.0835889 0.968231
0.229755 0.0742046 0.958877
0.402029 0.0622568 0.946944
0.606851 0.0504005 0.935119
0.807675 0.0450446 0.929747
0.979553 0.047776 0.932448
1 0.0533913 0.938003
0 0.192233 0.948928
0 0.202411 0.95906
0.0820935 0.20914 0.965774
0.234562 0.206928 0.963561
0.416846 0.201434 0.958068
0.634318 0.194614 0.951263
0.839826 0.192691 0.949325
1 0.196963 0.953613
1 0.202472 0.959091
0 0.343236 0.919753
0 0.359991 0.936004
0.0635691 0.371786 0.947356
0.219028 0.372488 0.947936
0.40322 0.367864 0.943313
0.621561 0.360601 0.936065
0.826719 0.358679 0.933852
1 0.363745 0.938262
1 0.370871 0.944289
0 0.518715 0.895384
0 0.536202 0.911833
0.0389715 0.547829 0.922744
0.194293 0.54847 0.923201
0.378912 0.544259 0.918975
0.598032 0.537606 0.912306
0.802548 0.535271 0.909621
0.974609 0.538781 0.912444
1 0.542901 0.915846
0 0.691203 0.874632
0 0.709026 0.891768
0.0190585 0.720684 0.902937
0.173648 0.720348 0.90251
0.356329 0.714061 0.8963
0.57145 0.704204 0.886564
0.770321 0.697459 0.879744
0.935622 0.695583 0.877592
1 0.693843 0.875547
0 0.850889 0.879408
0 0.866209 0.894133
0.0173037 0.87422 0.901808
0.168231 0.869093 0.896773
0.346517 0.857282 0.885252
0.55555 0.841611 0.869932
0.74699 0.829145 0.857633
0.905119 0.82179 0.850202
1 0.814893 0.843229
0 0.98674 0.898466
0 0.996368 0.907729
0.024567 0.99852 0.909773
0.171298 0.987655 0.899229
0.345541 0.970321 0.882399
0.550134 0.949615 0.862226
0.735943 0.932845 0.845792
0.889494 0.921981 0.835004
1 0.912444 0.825498
0 1 0.907515
0 1 0.91162
0.0236973 1 0.909026
0.167102 1 0.894545
0.338582 1 0.874617
0.540917 1 0.852155
0.724651 1 0.834195
0.87715 1 0.822629
1 1 0.813077
0 0 1
0 0 1
0.0882734 0 1
0.227939 0 1
0.393317 0 1
0.584207 0 1
0.776562 0 1
0.940215 0 1
1 0 1
0 0.0790723 1
0 0.0831617 1
0.0847181 0.0834058 1
0.230274 0.0747387 1
0.403555 0.063508 1
0.610132 0.0523995 1
0.811826 0.0476692 1
0.984298 0.0508431 1
1 0.0567178 1
0 0.193042 1
0 0.203952 1
0.0842603 0.211429 1
0.237476 0.209781 1
0.420813 0.204639 1
0.639475 0.197986 1
0.844999 0.196048 1
1 0.200122 1
1 0.205676 1
0 0.34638 1
0 0.363485 1
0.0668498 0.375433 1
0.222461 0.376059 1
0.40705 0.371145 1
0.626535 0.364034 1
0.831861 0.362249 1
1 0.367407 1
1 0.374456 1
0 0.522301 1
0 0.539635 1
0.0421454 0.551461 1
0.197787 0.552178 1
0.383047 0.547906 1
0.602945 0.54107 1
0.807126 0.53846 1
0.978683 0.541588 1
1 0.545205 1
0 0.694835 0.984649
0 0.712581 1
0.0220645 0.724056 1
0.176608 0.7234 1
0.359426 0.71667 1
0.574609 0.706249 0.995026
0.772686 0.698878 0.987625
0.937224 0.696422 0.984909
1 0.694133 0.98233
0 0.853819 0.988739
0 0.86865 1
0.0188907 0.876081 1
0.169451 0.870344 1
0.347448 0.857939 0.992386
0.556161 0.841688 0.976516
0.746899 0.828687 0.963699
0.904356 0.820829 0.955795
1 0.81355 0.94844
0 0.987778 1
0 0.996841 1
0.0243687 0.998428 1
0.170657 0.987015 1
0.344503 0.969223 0.987839
0.54873 0.94815 0.96733
0.734157 0.931105 0.950622
0.887465 0.920043 0.939651
1 0.910369 0.929992
0 1 1
0 1 1
0.0221103 1 1
0.165255 1 0.999298
0.336538 1 0.979202
0.538705 1 0.956649
0.722408 1 0.938674
0.874998 1 0.927184
1 1 0.917739
0 0 1
0 0 1
0.0873121 0 1
0.227375 0 1
0.393317 0 1
0.585534 0 1
0.77882 0 1
0.943465 0 1
1 0 1
0 0.0786755 1
0 0.0833295 1
0.0855116 0.0842756 1
0.231846 0.0763104 1
0.406271 0.0658122 1
0.61474 0.0554208 1
0.817197 0.0512551 1
0.990188 0.0548104 1
1 0.060914 1
0 0.194888 1
0 0.206561 1
0.0874342 0.21474 1
0.241382 0.213581 1
0.425772 0.208728 1
0.645685 0.202152 1
0.851118 0.200153 1
1 0.204013 1
1 0.209796 1
0 0.350469 1
0 0.367864 1
0.0708782 0.379919 1
0.226673 0.380407 1
0.411826 0.375311 1
0.632609 0.368368 1
0.838026 0.36669 1
1 0.371923 1
1 0.37882 1
0 0.526635 1
0 0.543984 1
0.0461433 0.555978 1
0.202136 0.556725 1
0.388083 0.552346 1
0.608789 0.545281 1
0.812558 0.542367 1
0.983581 0.545052 1
1 0.548135 1
0 0.69929 1
0 0.716915 1
0.0257725 0.728161 1
0.18027 0.727138 1
0.363241 0.719936 1
0.578531 0.708904 1
0.77583 0.700938 1
0.939605 0.697902 1
1 0.695048 1
0 0.857435 1
0 0.871748 1
0.0210727 0.878569 1
0.171298 0.872221 1
0.349065 0.85922 1
0.557549 0.842405 1
0.7476 0.828885 1
0.904448 0.820539 1
1 0.812909 1
0 0.989456 1
0 0.99794 1
0.0247959 0.998978 1
0.170687 0.98703 1
0.344228 0.968795 1
0.548196 0.947402 1
0.733318 0.930098 1
0.886381 0.918868 1
1 0.909102 1
0 1 1
0 1 1
0.0212406 1 1
0.164202 1 1
0.335363 1 1
0.537469 1 1
0.721202 1 1
0.873899 1 1
1 0.999466 1
