LUTS/08_VSCO LUTs_Green Haze.cube
TITLE "Generated by Resolve"
LUT_3D_SIZE 33
0 0.0259861 0.0569467
0 0.0260777 0.0570535
0 0.0262303 0.0572061
0.00660716 0.026627 0.0576028
0.0271153 0.0266117 0.0575723
0.0486305 0.026276 0.0572366
0.0716564 0.0258946 0.0568551
0.096849 0.0245518 0.0555276
0.12462 0.0224308 0.0534066
0.155077 0.0195468 0.0505379
0.1888 0.0158389 0.0468452
0.225269 0.0115053 0.0425116
0.263523 0.00674449 0.0377661
0.303166 0.00177005 0.0328222
0.344106 0 0.027863
0.385595 0 0.0229191
0.427558 0 0.017792
0.473091 0 0.0124208
0.51989 0 0.00703441
0.568261 0 0.00170901
0.619028 0 0
0.668925 0 0
0.716625 0 0
0.762234 0 0
0.805615 0 0
0.846998 0 0
0.886656 0 0
0.925139 0 0
0.96286 0 0
1 0 0
1 0 0
1 0 0
1 0 0
0 0.0476692 0.0537575
0 0.0481727 0.0539864
0 0.0485084 0.0540475
0.00335698 0.0488136 0.0543374
0.0238041 0.0487221 0.0542458
0.0452735 0.0483406 0.0539254
0.0683146 0.0475013 0.0535897
0.0935073 0.0460822 0.0521859
0.121294 0.0439765 0.0500801
0.151781 0.0411078 0.0472267
0.18555 0.0374609 0.043595
0.222095 0.0331731 0.0393225
0.260426 0.0285039 0.0346685
0.300175 0.0236362 0.0298314
0.341192 0.0192874 0.0249332
0.382849 0.0144808 0.0201419
0.424994 0.00949111 0.0151827
0.470771 0.00430304 0.00999466
0.517845 0 0.00482185
0.566583 0 0
0.617777 0 0
0.668025 0 0
0.716106 0 0
0.762127 0 0
0.805982 0 0
0.847852 0 0
0.88806 0 0
0.927092 0 0
0.965377 0 0
1 0 0
1 0 0
1 0 0
1 0 0
0 0.0697337 0.0507057
0 0.0701915 0.0509499
0 0.0704814 0.0509804
0.000183108 0.0707561 0.0511635
0.0206302 0.0706645 0.0510719
0.0421149 0.0702831 0.0508888
0.0652018 0.0694896 0.0504616
0.0904402 0.0681315 0.0491188
0.118303 0.0661021 0.0470893
0.148882 0.0633249 0.0443427
0.182773 0.0598001 0.0408179
0.21944 0.0556497 0.0366827
0.257939 0.051133 0.0321965
0.297902 0.0464485 0.0275273
0.339208 0.0417945 0.0228885
0.381109 0.0372015 0.0183108
0.423529 0.0324559 0.0135805
0.469688 0.027512 0.00866712
0.517159 0.0225834 0.00375372
0.566415 0.0177615 0
0.618189 0.013611 0
0.668864 0.00944533 0
0.717449 0.00585946 0
0.764019 0.00282292 0
0.808438 0.000396735 0
0.850874 0 0
0.891646 0 0
0.931258 0 0
0.970123 0 0
1 0 0
1 0 0
1 0 0
1 0 0
0 0.0916915 0.0474708
0 0.0921492 0.0479286
0 0.0924697 0.0479438
0 0.0927901 0.0480201
0.0175326 0.0927596 0.0479744
0.0390936 0.0924697 0.0478218
0.0622873 0.091783 0.0475624
0.0876478 0.090547 0.0463264
0.115648 0.0886549 0.0444495
0.14638 0.0860609 0.0418555
0.180468 0.0827039 0.0385138
0.21735 0.0787671 0.0345922
0.256077 0.0744793 0.0303197
0.296315 0.0700389 0.0258946
0.337972 0.0656291 0.0215152
0.380163 0.061326 0.0172274
0.422965 0.0568856 0.0128023
0.469642 0.0522621 0.00819409
0.517662 0.0476997 0.00364691
0.567666 0.0432441 0
0.62031 0.0390173 0
0.671519 0.0352636 0
0.720668 0.0320745 0
0.767819 0.0294652 0
0.812802 0.0274815 0
0.855833 0.0260471 0
0.897185 0.0251469 0
0.937407 0.0246433 0
0.976867 0.024445 0
1 0.024506 0
1 0.0247044 0
1 0.0249638 0
1 0.0253605 0
0 0.114 0.0437171
0 0.114519 0.0442359
0 0.114931 0.0446326
0 0.115358 0.0449226
0.0141756 0.115465 0.04477
0.0358892 0.115343 0.0446632
0.0592508 0.114809 0.0445258
0.0848096 0.113787 0.0434882
0.113008 0.112093 0.0418097
0.143954 0.109728 0.0394598
0.178317 0.10663 0.0363775
0.215457 0.102968 0.0327153
0.254505 0.0989548 0.0287327
0.295094 0.0948348 0.0246281
0.337194 0.0907759 0.0205844
0.379767 0.0868391 0.0166629
0.423133 0.0827955 0.0126345
0.470436 0.078584 0.00843824
0.519112 0.0744335 0.00428779
0.569986 0.0703899 0.000274662
0.623453 0.0665751 0
0.675227 0.0632486 0
0.724971 0.060502 0
0.772717 0.0583352 0
0.818311 0.0567788 0
0.861952 0.0558022 0
0.903914 0.0553597 0
0.944762 0.055314 0
0.984863 0.0555886 0
1 0.0561227 0
1 0.0567941 0
1 0.057496 0
1 0.05832 0
0 0.137087 0.0391241
0 0.137758 0.0397955
0 0.138323 0.0403449
0 0.138933 0.0409552
0.0102693 0.139223 0.0412604
0.0321965 0.139315 0.0413367
0.055787 0.13904 0.041062
0.08159 0.138262 0.0402838
0.110079 0.136858 0.0388952
0.141299 0.134783 0.0368353
0.175998 0.132006 0.0340734
0.213519 0.12871 0.0307774
0.252964 0.125093 0.0271763
0.294026 0.12137 0.0234684
0.336645 0.117723 0.0198367
0.379614 0.114214 0.0163424
0.423682 0.110582 0.012726
0.471595 0.106798 0.00895705
0.521004 0.103075 0.00523384
0.572885 0.0994583 0.00161746
0.6271 0.0960708 0
0.679484 0.0932021 0
0.729839 0.0909133 0
0.77821 0.089189 0
0.824414 0.0881056 0
0.868696 0.087602 0
0.911315 0.0876173 0
0.952773 0.0880446 0
0.993469 0.0887617 0
1 0.0897078 0
1 0.0907607 0
1 0.0918135 0
1 0.092958 0
0 0.161425 0.0333562
0 0.162295 0.034226
0 0.163073 0.0350195
0 0.163943 0.035874
0.00547799 0.164508 0.0364385
0.0276799 0.164874 0.0368048
0.0515755 0.164904 0.0368353
0.0777142 0.164477 0.0363928
0.106554 0.163439 0.0353704
0.138155 0.161761 0.0337072
0.173281 0.159396 0.0313573
0.2112 0.156512 0.0284733
0.251102 0.153323 0.0252842
0.292653 0.150027 0.0220035
0.335805 0.146807 0.0187991
0.379187 0.14374 0.0157473
0.424048 0.140551 0.0125582
0.472541 0.137209 0.00923171
0.522713 0.133913 0.00595102
0.575723 0.130739 0.00277714
0.63061 0.12781 0
0.683619 0.125399 0
0.734615 0.123583 0
0.783612 0.122332 0
0.830457 0.121706 0
0.875303 0.12163 0
0.918471 0.122057 0
0.960433 0.12285 0
1 0.123919 0
1 0.12517 0
1 0.126513 0
1 0.127825 0
1 0.129229 0.000579843
0 0.187457 0.0260777
0 0.188602 0.0272068
0 0.189685 0.0282902
0 0.19086 0.0294652
0 0.191775 0.0303655
0.0220493 0.192538 0.0311284
0.0463264 0.192966 0.0315557
0.0728618 0.19295 0.0315251
0.102113 0.192325 0.0309148
0.134127 0.191089 0.0296788
0.16968 0.189151 0.0277562
0.208026 0.186694 0.0252995
0.248386 0.183948 0.0225681
0.29044 0.181094 0.0197299
0.334127 0.178332 0.016968
0.377935 0.175723 0.0143587
0.42359 0.172976 0.0116274
0.472694 0.170092 0.00875868
0.523659 0.167269 0.00593576
0.577798 0.164538 0.00321965
0.633295 0.162081 0.000762951
0.686915 0.160128 0
0.738476 0.158724 0
0.788006 0.15787 0
0.83534 0.157595 0
0.880629 0.157855 0
0.924208 0.158587 0
0.966537 0.15964 0
1 0.160952 0
1 0.162432 0.000457771
1 0.163958 0.00195315
1 0.165423 0.00341802
1 0.166949 0.00492866
0 0.215503 0.0173037
0 0.217014 0.0187991
0 0.218479 0.020264
0 0.220066 0.0218357
0 0.221408 0.0231632
0.0153353 0.222583 0.0243381
0.0400244 0.223438 0.0251926
0.0669871 0.22385 0.0256046
0.0966506 0.223682 0.0254368
0.129091 0.222873 0.0246281
0.165072 0.221393 0.0231479
0.203876 0.219394 0.0211643
0.244709 0.217105 0.0188754
0.287266 0.21471 0.016495
0.331487 0.212406 0.0142061
0.375753 0.210285 0.0120699
0.422171 0.207996 0.00979629
0.47187 0.205585 0.00738537
0.523598 0.203189 0.00500496
0.578729 0.200855 0.00267033
0.634684 0.198779 0.000595102
0.688777 0.197177 0
0.74078 0.196094 0
0.790692 0.195529 0
0.838376 0.195529 0
0.884001 0.196017 0
0.92784 0.196948 0
0.970428 0.198184 0
1 0.199634 0.000808728
1 0.201205 0.00239567
1 0.202792 0.0039826
1 0.204303 0.00550851
1 0.205844 0.00704967
0 0.245853 0.00721752
0 0.247761 0.00914015
0 0.249653 0.0110323
0 0.251667 0.0130312
0 0.253437 0.0148013
0.00749218 0.255055 0.0164034
0.0326085 0.256352 0.0177157
0.0599985 0.257221 0.018555
0.0901045 0.257496 0.0188449
0.123003 0.25716 0.0184939
0.159411 0.256153 0.0174868
0.198688 0.254612 0.0159609
0.239979 0.252796 0.0141451
0.28304 0.250889 0.012253
0.327779 0.249042 0.0104067
0.372457 0.247349 0.0087129
0.419516 0.245472 0.00683604
0.469703 0.243412 0.00479133
0.522011 0.241367 0.00273136
0.577874 0.239322 0.000701915
0.634165 0.237537 0
0.688594 0.236179 0
0.740902 0.235309 0
0.791074 0.234943 0
0.838987 0.235111 0
0.884794 0.235752 0
0.928786 0.236805 0
0.97145 0.238148 0
1 0.239704 0.00030518
1 0.241367 0.00189212
1 0.243015 0.00347906
1 0.244556 0.00494392
1 0.246098 0.00640879
0 0.278843 0
0 0.281209 0
0 0.283604 0.000732433
0 0.286091 0.00317388
0 0.28835 0.00538643
0 0.290455 0.0074464
0.0241855 0.292256 0.00920119
0.0520333 0.293599 0.0105135
0.0825971 0.294377 0.0112764
0.115969 0.294514 0.0113985
0.152804 0.293965 0.0108644
0.192523 0.292897 0.00979629
0.234226 0.291493 0.00840772
0.277684 0.289967 0.00688182
0.322805 0.288487 0.00541695
0.367819 0.287114 0.00404364
0.415305 0.285527 0.0024567
0.465843 0.283742 0.000686656
0.518547 0.281926 0
0.574884 0.280095 0
0.631373 0.278492 0
0.68603 0.277302 0
0.738491 0.276585 0
0.7888 0.276326 0
0.836789 0.276585 0
0.882658 0.277302 0
0.926635 0.278386 0
0.969299 0.279728 0
1 0.281224 0
1 0.282811 0
1 0.284352 0.000213626
1 0.285786 0.00157168
1 0.287129 0.00283818
0 0.314305 0
0 0.317143 0
0 0.319997 0
0 0.322957 0
0 0.325704 0
0 0.328283 0
0.0155947 0.330571 0.000518807
0.0438849 0.332403 0.00228885
0.074876 0.333623 0.00349432
0.108659 0.334188 0.00402838
0.145815 0.334035 0.00386053
0.185885 0.333318 0.00314336
0.227893 0.332235 0.00207523
0.271641 0.331014 0.000854505
0.317037 0.329793 0
0.362295 0.328649 0
0.410025 0.327276 0
0.460761 0.325673 0
0.51371 0.323995 0
0.570275 0.322271 0
0.626871 0.32076 0
0.68159 0.319615 0
0.734096 0.318944 0
0.78439 0.3187 0
0.832334 0.318929 0
0.878126 0.3196 0
0.921996 0.320607 0
0.964477 0.321859 0
1 0.323232 0
1 0.324681 0
1 0.326177 0
1 0.327657 0
1 0.329152 0
0 0.351827 0
0 0.355169 0
0 0.358526 0
0 0.362005 0
0 0.365225 0
0 0.368292 0
0.00741588 0.371008 0
0.0360723 0.373236 0
0.0673838 0.374838 0
0.101472 0.375723 0
0.138872 0.375875 0
0.179187 0.375402 0
0.221424 0.374563 0
0.265339 0.373526 0
0.310903 0.372473 0
0.356313 0.371481 0
0.40415 0.370199 0
0.454994 0.368673 0
0.507988 0.367041 0
0.564599 0.365347 0
0.62118 0.363821 0
0.675837 0.362646 0
0.728237 0.361913 0
0.778408 0.361593 0
0.826185 0.36173 0
0.871733 0.36228 0
0.915404 0.36318 0
0.957824 0.364431 0
0.999344 0.365911 0
1 0.367559 0
1 0.369253 0
1 0.370932 0
1 0.37261 0
0 0.391409 0
0 0.395254 0
0 0.3991 0
0 0.403037 0
0 0.406699 0
0 0.410163 0
9.15541e-05 0.413245 0
0.0289921 0.415808 0
0.0605325 0.417716 0
0.0948348 0.418875 0
0.132387 0.419242 0
0.172854 0.418952 0
0.215198 0.418235 0
0.25922 0.417304 0
0.304845 0.416312 0
0.350286 0.415366 0
0.398138 0.414084 0
0.448951 0.412528 0
0.501884 0.410834 0
0.558373 0.409064 0
0.614801 0.407446 0
0.669276 0.406149 0
0.721447 0.40528 0
0.771466 0.404898 0
0.819196 0.405081 0
0.864866 0.405783 0
0.908705 0.406928 0
0.951263 0.408377 0
0.992935 0.410056 0
1 0.411887 0
1 0.413718 0
1 0.415503 0
1 0.417273 0
0 0.43299 0
0 0.437293 0
0 0.441566 0
0 0.445884 0
0 0.449897 0
0 0.453666 0
0 0.457023 0
0.0230259 0.4598 0
0.0547036 0.46186 0
0.0891127 0.463142 0
0.126757 0.463584 0
0.167285 0.463355 0
0.209659 0.462654 0
0.253681 0.461723 0
0.29929 0.4607 0
0.344656 0.459678 0
0.392447 0.458305 0
0.443122 0.456611 0
0.495888 0.454765 0
0.552163 0.452827 0
0.608499 0.451118 0
0.663005 0.449851 0
0.715328 0.449104 0
0.765515 0.448859 0
0.813413 0.449165 0
0.859205 0.449973 0
0.903151 0.451194 0
0.9458 0.45272 0
0.987518 0.454459 0
1 0.456306 0
1 0.458167 0
1 0.459953 0
1 0.461692 0
0 0.476188 0
0 0.480766 0
0 0.485267 0
0 0.489799 0
0 0.49398 0
0 0.497902 0
0 0.501366 0
0.0173342 0.504219 0
0.0490578 0.506325 0
0.0834669 0.507622 0
0.121126 0.508064 0
0.161593 0.507774 0
0.203906 0.507012 0
0.247837 0.505959 0
0.293309 0.504784 0
0.338506 0.503594 0
0.38613 0.502083 0
0.436759 0.500343 0
0.48957 0.498558 0
0.546014 0.496757 0
0.602518 0.495186 0
0.65716 0.494041 0
0.709621 0.493385 0
0.759899 0.493217 0
0.807874 0.493584 0
0.853712 0.494423 0
0.897688 0.495659 0
0.940337 0.497185 0
0.982055 0.498878 0
1 0.500679 0
1 0.502449 0
1 0.504128 0
1 0.50576 0
0 0.520378 0
0 0.525093 0
0 0.529717 0
0 0.534325 0
0 0.538552 0
0 0.542458 0
0 0.545907 0
0.0112459 0.548714 0
0.0429236 0.550744 0
0.0772412 0.551934 0
0.114778 0.552239 0
0.155108 0.551797 0
0.197253 0.550851 0
0.241062 0.549691 0
0.286503 0.548531 0
0.331807 0.547433 0
0.379553 0.546059 0
0.430304 0.544457 0
0.483223 0.542779 0
0.539757 0.54107 0
0.596353 0.539574 0
0.651072 0.53846 0
0.703563 0.537835 0
0.753887 0.537667 0
0.801846 0.538003 0
0.847669 0.538811 0
0.8916 0.539986 0
0.934188 0.541421 0
0.975814 0.543023 0
1 0.544686 0
1 0.546334 0
1 0.54786 0
1 0.549325 0
0 0.564721 0
0 0.569467 0
0 0.574075 0
0 0.578637 0
0 0.582788 0
0 0.586618 0
0 0.589944 0
0.00489815 0.592599 0
0.036408 0.594446 0
0.0706035 0.595468 0
0.108049 0.595697 0
0.148409 0.5953 0
0.190661 0.594476 0
0.234607 0.593454 0
0.280156 0.592416 0
0.325567 0.591409 0
0.373373 0.590143 0
0.424201 0.588602 0
0.47718 0.586969 0
0.533761 0.585275 0
0.590356 0.58378 0
0.64506 0.582666 0
0.697536 0.581994 0
0.747784 0.581781 0
0.795666 0.58204 0
0.841398 0.582757 0
0.885206 0.58381 0
0.927642 0.585107 0
0.969085 0.586557 0
1 0.588067 0
1 0.589517 0
1 0.59086 0
1 0.592096 0
0 0.608667 0
0 0.613336 0
0 0.617853 0
0 0.622293 0
0 0.626291 0
0 0.629923 0
0 0.633097 0
0 0.635721 0
0.0302281 0.637644 0
0.0645609 0.638804 0
0.102129 0.639155 0
0.142596 0.638865 0
0.184939 0.638132 0
0.228962 0.637186 0
0.274586 0.63621 0
0.320012 0.635248 0
0.367895 0.633982 0
0.418738 0.632456 0
0.471733 0.630793 0
0.528313 0.629084 0
0.584848 0.627527 0
0.63946 0.626337 0
0.691814 0.625589 0
0.741939 0.625254 0
0.78967 0.625376 0
0.835203 0.625925 0
0.878813 0.62678 0
0.921035 0.627878 0
0.962234 0.629084 0
1 0.63032 0
1 0.63151 0
1 0.632517 0
1 0.633478 0
0 0.651789 0
0 0.65626 0
0 0.660563 0
0 0.664851 0
0 0.668788 0
0 0.67248 0
0 0.675746 0
0 0.678462 0
0.025391 0.680461 0
0.0597848 0.681697 0
0.0974594 0.682109 0
0.137987 0.681865 0
0.180377 0.681163 0
0.224445 0.680232 0
0.2701 0.67924 0
0.315496 0.678264 0
0.363439 0.676951 0
0.414252 0.675364 0
0.467231 0.67364 0
0.523812 0.671809 0
0.580179 0.670146 0
0.634623 0.668818 0
0.686793 0.667918 0
0.736706 0.667399 0
0.784192 0.667338 0
0.82948 0.667674 0
0.872801 0.668315 0
0.914702 0.669169 0
0.955581 0.67013 0
0.995804 0.671107 0
1 0.672007 0
1 0.672724 0
1 0.673365 0
0 0.693462 0
0 0.697978 0
0 0.702403 0
0 0.706828 0
0 0.710903 0
0 0.714702 0
0 0.718059 0
0 0.720836 0
0.0221256 0.722881 0
0.0565194 0.724147 0
0.0942702 0.724559 0
0.134783 0.724315 0
0.177188 0.723583 0
0.221286 0.722606 0
0.266941 0.721553 0
0.312184 0.720485 0
0.36025 0.719066 0
0.410986 0.717357 0
0.463966 0.71548 0
0.520516 0.713512 0
0.576638 0.711666 0
0.630838 0.710155 0
0.682734 0.709041 0
0.732341 0.708293 0
0.779522 0.707988 0
0.824475 0.708064 0
0.86743 0.708431 0
0.908949 0.708995 0
0.949416 0.709636 0
0.989197 0.710292 0
1 0.710842 0
1 0.711192 0
1 0.711452 0
0 0.734768 0
0 0.739376 0
0 0.743908 0
0 0.748394 0
0 0.752529 0
0 0.756374 0
0 0.759747 0
0 0.762524 0
0.020676 0.764553 0
0.055024 0.765774 0
0.0928206 0.76614 0
0.133272 0.76582 0
0.175647 0.764996 0
0.21976 0.763912 0
0.265385 0.762722 0
0.310414 0.761517 0
0.358618 0.75993 0
0.409262 0.758038 0
0.462226 0.755962 0
0.518746 0.753765 0
0.574548 0.751705 0
0.628412 0.749935 0
0.679973 0.748547 0
0.729213 0.747524 0
0.776013 0.746929 0
0.820523 0.74667 0
0.86305 0.7467 0
0.904097 0.746899 0
0.94406 0.747173 0
0.983368 0.747448 0
1 0.747616 0
1 0.7476 0
1 0.747494 0
0 0.775509 0
0 0.780179 0
0 0.784726 0
0 0.789242 0
0 0.793362 0
0 0.797177 0
0 0.800519 0
0 0.803235 0
0.0210575 0.805203 0
0.0552987 0.806317 0
0.0931258 0.806577 0
0.133471 0.806119 0
0.175799 0.805142 0
0.219989 0.803876 0
0.265431 0.802502 0
0.310201 0.801099 0
0.358572 0.799268 0
0.409094 0.797131 0
0.462074 0.794797 0
0.518517 0.792309 0
0.573907 0.789944 0
0.627375 0.787869 0
0.678508 0.786175 0
0.727306 0.784802 0
0.773602 0.783825 0
0.817639 0.7832 0
0.859663 0.782849 0
0.900236 0.782666 0
0.939727 0.782574 0
0.978531 0.782483 0
1 0.7823 0
1 0.781903 0
1 0.781445 0
0 0.815534 0
0 0.820203 0
0 0.824704 0
0 0.82916 0
0 0.833234 0
0 0.836957 0
0 0.840208 0
0 0.842802 0
0.0230106 0.844617 0
0.0571145 0.845579 0
0.0948959 0.845655 0
0.135088 0.844999 0
0.17734 0.843809 0
0.221607 0.842313 0
0.266789 0.840696 0
0.311299 0.839017 0
0.359777 0.836896 0
0.410163 0.834455 0
0.463157 0.831785 0
0.519432 0.828946 0
0.574365 0.826246 0
0.627359 0.823804 0
0.677989 0.821714 0
0.726284 0.819974 0
0.772107 0.818616 0
0.815656 0.817624 0
0.857206 0.816907 0
0.897292 0.816373 0
0.936324 0.815915 0
0.97467 0.815473 0
1 0.814923 0
1 0.814191 0
1 0.813382 0
0 0.854643 0
0 0.859251 0
0 0.863661 0
0 0.868025 0
0 0.871962 0
0 0.875547 0
0 0.878614 0
0 0.881025 0
0.026215 0.882643 0
0.0602426 0.883406 0
0.0978561 0.883223 0
0.137881 0.882322 0
0.180026 0.880858 0
0.224308 0.879042 0
0.269169 0.877119 0
0.313481 0.87512 0
0.361929 0.872648 0
0.412161 0.869825 0
0.465202 0.866758 0
0.521172 0.863554 0
0.575616 0.860471 0
0.628122 0.857649 0
0.678264 0.855192 0
0.726101 0.853086 0
0.77145 0.851377 0
0.814527 0.850019 0
0.855604 0.848951 0
0.895247 0.848066 0
0.933806 0.847257 0
0.97171 0.846464 0
1 0.845579 0
1 0.844511 0
1 0.843351 0
0 0.892699 0
0 0.897185 0
0 0.901442 0
0 0.905623 0
0 0.909361 0
0 0.912749 0
0 0.915602 0
0 0.917769 0
0.0304265 0.919127 0
0.0644388 0.919585 0
0.101762 0.919127 0
0.141573 0.917891 0
0.183581 0.916106 0
0.227771 0.913924 0
0.272175 0.911635 0
0.316533 0.909239 0
0.364767 0.906371 0
0.414862 0.903166 0
0.46804 0.899718 0
0.523598 0.896132 0
0.577569 0.892683 0
0.629602 0.889509 0
0.679301 0.886702 0
0.72665 0.88423 0
0.771542 0.88217 0
0.814176 0.880476 0
0.85481 0.879057 0
0.893996 0.877821 0
0.932128 0.876677 0
0.969589 0.875547 0
1 0.874327 0
1 0.872938 0
1 0.871458 0
0 0.929641 0
0 0.933898 0
0 0.937942 0
0 0.941894 0
0 0.945388 0
0 0.948501 0
0 0.95108 0
0.00454719 0.952941 0
0.0351873 0.953979 0
0.0690929 0.954086 0
0.106081 0.953262 0
0.145632 0.951659 0
0.187488 0.949477 0
0.23154 0.946914 0
0.27541 0.944244 0
0.319997 0.941451 0
0.367926 0.938216 0
0.417945 0.934646 0
0.471305 0.9308 0
0.52639 0.926863 0
0.579904 0.923049 0
0.631479 0.919539 0
0.68072 0.916381 0
0.727626 0.913573 0
0.772076 0.911162 0
0.814267 0.909133 0
0.854459 0.907378 0
0.893217 0.905821 0
0.930922 0.904356 0
0.967956 0.902892 0
1 0.90135 0
1 0.899657 0
1 0.897902 0
0 0.965362 0
0 0.96936 0
0 0.973129 0
0 0.976791 0
0 0.97998 0
0 0.982757 0
0 0.984985 0
0.00965896 0.986481 0
0.0399634 0.987137 0
