LUTS/08_VSCO LUTs_Green Haze.cube
TITLE "Generated by Resolve"
LUT_3D_SIZE 5
0 0.0259861 0.0569467
0.12462 0.0224308 0.0534066
0.427558 0 0.017792
0.805615 0 0
1 0 0
0 0.215503 0.0173037
0.0966506 0.223682 0.0254368
0.422171 0.207996 0.00979629
0.838376 0.195529 0
1 0.205844 0.00704967
0 0.520378 0
0.0429236 0.550744 0
0.379553 0.546059 0
0.801846 0.538003 0
1 0.549325 0
0 0.854643 0
0.026215 0.882643 0
0.361929 0.872648 0
0.77145 0.851377 0
1 0.843351 0
0 1 0
0.0534829 1 0
0.375463 1 0
0.766751 1 0
1 1 0
0 0.0192874 0.297169
0.117937 0.0156405 0.293553
0.42121 0 0.258549
0.800855 0 0.222995
1 0 0.213123
0 0.211872 0.260609
0.0957351 0.222873 0.271504
0.425193 0.210132 0.258808
0.844968 0.19939 0.248035
1 0.209979 0.258717
0 0.525093 0.194186
0.0465858 0.555123 0.222278
0.384848 0.550622 0.217624
0.808743 0.542535 0.209079
1 0.552926 0.218112
0 0.858946 0.179614
0.028748 0.885695 0.20528
0.363348 0.873503 0.19324
0.770642 0.849851 0.169909
1 0.839658 0.159411
0 1 0.22211
0.0490578 1 0.227237
0.369253 1 0.194491
0.759228 1 0.154543
1 1 0.133135
0 0.0030518 0.665797
0.101946 0 0.661952
0.405371 0 0.626505
0.785122 0 0.591913
1 0 0.585519
0 0.199557 0.632898
0.0864424 0.213458 0.647349
0.418433 0.203464 0.637247
0.839796 0.193988 0.628
1 0.204318 0.639338
0 0.51986 0.572808
0.0406806 0.549233 0.601648
0.379614 0.545342 0.597696
0.803296 0.536965 0.589166
1 0.546136 0.597681
0 0.85304 0.558923
0.0213931 0.878233 0.583993
0.353109 0.863706 0.569528
0.756756 0.837812 0.543679
1 0.825498 0.531334
0 1 0.595972
0.0345769 1 0.599176
0.351705 1 0.565057
0.739422 1 0.524178
1 1 0.502708
0 0 0.976608
0.0901045 0 0.973159
0.394339 0 0.940398
0.775647 0 0.909392
1 0 0.905135
0 0.192233 0.948928
0.0820935 0.20914 0.965774
0.416846 0.201434 0.958068
0.839826 0.192691 0.949325
1 0.202472 0.959091
0 0.518715 0.895384
0.0389715 0.547829 0.922744
0.378912 0.544259 0.918975
0.802548 0.535271 0.909621
1 0.542901 0.915846
0 0.850889 0.879408
0.0173037 0.87422 0.901808
0.346517 0.857282 0.885252
0.74699 0.829145 0.857633
1 0.814893 0.843229
0 1 0.907515
0.0236973 1 0.909026
0.338582 1 0.874617
0.724651 1 0.834195
1 1 0.813077
0 0 1
0.0873121 0 1
0.393317 0 1
0.77882 0 1
1 0 1
0 0.194888 1
0.0874342 0.21474 1
0.425772 0.208728 1
0.851118 0.200153 1
1 0.209796 1
0 0.526635 1
0.0461433 0.555978 1
0.388083 0.552346 1
0.812558 0.542367 1
1 0.548135 1
0 0.857435 1
0.0210727 0.878569 1
0.349065 0.85922 1
0.7476 0.828885 1
1 0.812909 1
0 1 1
0.0212406 1 1
0.335363 1 1
0.721202 1 1
1 0.999466 1
